( Made using CamBam - http://www.cambam.info )
( Hand dial 6/15/2013 12:56:25 PM )
( T0 : 0.01 )
G20 G90 G64 G40
G0 Z0.05
( T0 : 0.01 )
T0 M6
( Numbers and ticks )
G17
M3
G0 X0.4118 Y-0.0481
G1 F5.0 Z-0.015
G1 F10.0 X0.4388 Y-0.0465
G1 X0.4389
G1 X0.4444 Y-0.0457
G1 X0.443 Y-0.0459
G1 X0.4117 Y-0.0476
G1 X0.3876 Y-0.0466
G1 X0.3719 Y-0.0444
G1 X0.3871 Y-0.0469
G1 X0.4117 Y-0.0481
G1 X0.4118
G0 Z0.05
G0 Y0.046
G1 F5.0 Z-0.015
G1 F10.0 X0.4351 Y0.0451
G1 X0.4473 Y0.0437
G1 X0.4364 Y0.0453
G1 X0.4363
G1 X0.4118 Y0.0466
G1 X0.4117
G1 X0.3913 Y0.0458
G1 X0.3758 Y0.0437
G1 X0.3805 Y0.0443
G1 X0.4118 Y0.046
G1 F5.0 X0.4117 Y0.044
G1 F10.0 X0.4118
G1 X0.4349 Y0.0431
G1 X0.4587 Y0.0393
G1 X0.4753 Y0.0321
G1 X0.4885 Y0.0186
G1 X0.4886 Y0.0185
G1 X0.494 Y-0.0008
G1 X0.4887 Y-0.0201
G1 X0.4886 Y-0.0202
G1 X0.4755 Y-0.0337
G1 X0.4753 Y-0.0339
G1 X0.4587 Y-0.041
G1 X0.4428 Y-0.0439
G1 X0.4427
G1 X0.4117 Y-0.0456
G1 X0.3877 Y-0.0446
G1 X0.3632 Y-0.0403
G1 X0.3464 Y-0.0327
G1 X0.3306 Y-0.0105
G1 X0.3295 Y-0.001
G1 X0.3348 Y0.0183
G1 Y0.0184
G1 X0.348 Y0.032
G1 X0.3481 Y0.0321
G1 X0.3647 Y0.0393
G1 X0.3807 Y0.0423
G1 X0.4117 Y0.044
G1 F5.0 Y0.04
G1 F10.0 X0.4118
G1 X0.4346 Y0.0391
G1 X0.4577 Y0.0354
G1 X0.4731 Y0.0288
G1 Y0.0287
G1 X0.4851 Y0.0165
G1 X0.4852 Y0.0164
G1 X0.49 Y-0.0008
G1 X0.4852 Y-0.018
G1 Y-0.0181
G1 X0.4733 Y-0.0304
G1 X0.4732 Y-0.0305
G1 X0.4578 Y-0.0371
G1 X0.4423 Y-0.04
G1 X0.4117 Y-0.0416
G1 X0.3881 Y-0.0406
G1 X0.3642 Y-0.0364
G1 X0.3486 Y-0.0294
G1 X0.3341 Y-0.0081
G1 X0.3335 Y-0.001
G1 X0.3382 Y0.0162
G1 Y0.0163
G1 X0.3502 Y0.0287
G1 X0.3503 Y0.0288
G1 X0.3657 Y0.0355
G1 X0.3812 Y0.0384
G1 X0.4117 Y0.04
G0 Z0.05
G0 Y0.0486
G1 F5.0 Z-0.015
G1 F10.0 X0.3912 Y0.0478
G1 X0.3911
G1 X0.3716 Y0.0448
G1 X0.3477 Y0.0348
G1 X0.3341 Y0.0203
G1 X0.3293 Y-0.0006
G1 Y-0.0009
G1 X0.3313 Y-0.0154
G1 X0.3378 Y-0.0276
G1 X0.3491 Y-0.0374
G1 X0.3635 Y-0.0441
G1 X0.3869 Y-0.0489
G1 X0.4117 Y-0.0501
G1 X0.4118
G1 X0.4391 Y-0.0485
G1 X0.4647 Y-0.0423
G1 X0.479 Y-0.0343
G1 X0.4904 Y-0.0198
G1 X0.4941 Y-0.0009
G1 Y-0.0007
G1 X0.492 Y0.0138
G1 X0.4856 Y0.026
G1 X0.4742 Y0.0358
G1 X0.4599 Y0.0425
G1 X0.4366 Y0.0473
G1 X0.4365
G1 X0.4118 Y0.0486
G1 X0.4117
G1 F5.0 Y0.0526
G1 F10.0 X0.3909 Y0.0518
G1 X0.3707 Y0.0487
G1 X0.3455 Y0.0382
G1 X0.3306 Y0.0222
G1 X0.3253 Y-0.0007
G1 Y-0.0008
G1 X0.3275 Y-0.0165
G1 X0.3347 Y-0.0301
G1 X0.347 Y-0.0408
G1 X0.3623 Y-0.0479
G1 X0.3865 Y-0.0529
G1 X0.4117 Y-0.0541
G1 X0.4118
G1 X0.4396 Y-0.0525
G1 X0.4661 Y-0.0461
G1 X0.4814 Y-0.0375
G1 X0.4941 Y-0.0214
G1 X0.4981 Y-0.0009
G1 Y-0.0007
G1 X0.4959 Y0.0149
G1 X0.4887 Y0.0285
G1 X0.4763 Y0.0393
G1 X0.4611 Y0.0463
G1 X0.4369 Y0.0513
G1 X0.4118 Y0.0526
G1 X0.4117
G1 F5.0 Y0.0466
G1 Z-0.025
G1 F10.0 X0.3913 Y0.0458
G1 X0.3758 Y0.0437
G1 X0.3805 Y0.0443
G1 X0.4118 Y0.046
G1 X0.4351 Y0.0451
G1 X0.4473 Y0.0437
G1 X0.4364 Y0.0453
G1 X0.4363
G1 X0.4118 Y0.0466
G1 X0.4117
G0 Z0.05
G0 Y-0.0476
G0 Z0.0475
G1 F5.0 Z-0.025
G1 F10.0 X0.3876 Y-0.0466
G1 X0.3719 Y-0.0444
G1 X0.3871 Y-0.0469
G1 X0.4117 Y-0.0481
G1 X0.4118
G1 X0.4388 Y-0.0465
G1 X0.4389
G1 X0.4444 Y-0.0457
G1 X0.443 Y-0.0459
G1 X0.4117 Y-0.0476
G1 F5.0 Y-0.0456
G1 F10.0 X0.3877 Y-0.0446
G1 X0.3632 Y-0.0403
G1 X0.3464 Y-0.0327
G1 X0.3306 Y-0.0105
G1 X0.3295 Y-0.001
G1 X0.3348 Y0.0183
G1 Y0.0184
G1 X0.348 Y0.032
G1 X0.3481 Y0.0321
G1 X0.3647 Y0.0393
G1 X0.3807 Y0.0423
G1 X0.4118 Y0.044
G1 X0.4349 Y0.0431
G1 X0.4587 Y0.0393
G1 X0.4753 Y0.0321
G1 X0.4885 Y0.0186
G1 X0.4886 Y0.0185
G1 X0.494 Y-0.0008
G1 X0.4887 Y-0.0201
G1 X0.4886 Y-0.0202
G1 X0.4755 Y-0.0337
G1 X0.4753 Y-0.0339
G1 X0.4587 Y-0.041
G1 X0.4428 Y-0.0439
G1 X0.4427
G1 X0.4117 Y-0.0456
G1 F5.0 Y-0.0416
G1 F10.0 X0.3881 Y-0.0406
G1 X0.3642 Y-0.0364
G1 X0.3486 Y-0.0294
G1 X0.3341 Y-0.0081
G1 X0.3335 Y-0.001
G1 X0.3382 Y0.0162
G1 Y0.0163
G1 X0.3502 Y0.0287
G1 X0.3503 Y0.0288
G1 X0.3657 Y0.0355
G1 X0.3812 Y0.0384
G1 X0.4118 Y0.04
G1 X0.4346 Y0.0391
G1 X0.4577 Y0.0354
G1 X0.4731 Y0.0288
G1 Y0.0287
G1 X0.4851 Y0.0165
G1 X0.4852 Y0.0164
G1 X0.49 Y-0.0008
G1 X0.4852 Y-0.018
G1 Y-0.0181
G1 X0.4733 Y-0.0304
G1 X0.4732 Y-0.0305
G1 X0.4578 Y-0.0371
G1 X0.4423 Y-0.04
G1 X0.4117 Y-0.0416
G0 Z0.05
G0 Y-0.0501
G0 Z0.0475
G1 F5.0 Z-0.025
G1 F10.0 X0.4118
G1 X0.4391 Y-0.0485
G1 X0.4647 Y-0.0423
G1 X0.479 Y-0.0343
G1 X0.4904 Y-0.0198
G1 X0.4941 Y-0.0009
G1 Y-0.0007
G1 X0.492 Y0.0138
G1 X0.4856 Y0.026
G1 X0.4742 Y0.0358
G1 X0.4599 Y0.0425
G1 X0.4366 Y0.0473
G1 X0.4365
G1 X0.4118 Y0.0486
G1 X0.4117
G1 X0.3912 Y0.0478
G1 X0.3911
G1 X0.3716 Y0.0448
G1 X0.3477 Y0.0348
G1 X0.3341 Y0.0203
G1 X0.3293 Y-0.0006
G1 Y-0.0009
G1 X0.3313 Y-0.0154
G1 X0.3378 Y-0.0276
G1 X0.3491 Y-0.0374
G1 X0.3635 Y-0.0441
G1 X0.3869 Y-0.0489
G1 X0.4117 Y-0.0501
G1 F5.0 Y-0.0541
G1 F10.0 X0.4118
G1 X0.4396 Y-0.0525
G1 X0.4661 Y-0.0461
G1 X0.4814 Y-0.0375
G1 X0.4941 Y-0.0214
G1 X0.4981 Y-0.0009
G1 Y-0.0007
G1 X0.4959 Y0.0149
G1 X0.4887 Y0.0285
G1 X0.4763 Y0.0393
G1 X0.4611 Y0.0463
G1 X0.4369 Y0.0513
G1 X0.4118 Y0.0526
G1 X0.4117
G1 X0.3909 Y0.0518
G1 X0.3707 Y0.0487
G1 X0.3455 Y0.0382
G1 X0.3306 Y0.0222
G1 X0.3253 Y-0.0007
G1 Y-0.0008
G1 X0.3275 Y-0.0165
G1 X0.3347 Y-0.0301
G1 X0.347 Y-0.0408
G1 X0.3623 Y-0.0479
G1 X0.3865 Y-0.0529
G1 X0.4117 Y-0.0541
G1 F5.0 Y-0.0481
G1 Z-0.03
G1 F10.0 X0.4118
G1 X0.4388 Y-0.0465
G1 X0.4389
G1 X0.4444 Y-0.0457
G1 X0.443 Y-0.0459
G1 X0.4117 Y-0.0476
G1 X0.3876 Y-0.0466
G1 X0.3719 Y-0.0444
G1 X0.3871 Y-0.0469
G1 X0.4117 Y-0.0481
G0 Z0.05
G0 X0.4118 Y0.046
G0 Z0.0375
G1 F5.0 Z-0.03
G1 F10.0 X0.4351 Y0.0451
G1 X0.4473 Y0.0437
G1 X0.4364 Y0.0453
G1 X0.4363
G1 X0.4118 Y0.0466
G1 X0.4117
G1 X0.3913 Y0.0458
G1 X0.3758 Y0.0437
G1 X0.3805 Y0.0443
G1 X0.4118 Y0.046
G1 F5.0 X0.4117 Y0.044
G1 F10.0 X0.4118
G1 X0.4349 Y0.0431
G1 X0.4587 Y0.0393
G1 X0.4753 Y0.0321
G1 X0.4885 Y0.0186
G1 X0.4886 Y0.0185
G1 X0.494 Y-0.0008
G1 X0.4887 Y-0.0201
G1 X0.4886 Y-0.0202
G1 X0.4755 Y-0.0337
G1 X0.4753 Y-0.0339
G1 X0.4587 Y-0.041
G1 X0.4428 Y-0.0439
G1 X0.4427
G1 X0.4117 Y-0.0456
G1 X0.3877 Y-0.0446
G1 X0.3632 Y-0.0403
G1 X0.3464 Y-0.0327
G1 X0.3306 Y-0.0105
G1 X0.3295 Y-0.001
G1 X0.3348 Y0.0183
G1 Y0.0184
G1 X0.348 Y0.032
G1 X0.3481 Y0.0321
G1 X0.3647 Y0.0393
G1 X0.3807 Y0.0423
G1 X0.4117 Y0.044
G1 F5.0 Y0.04
G1 F10.0 X0.4118
G1 X0.4346 Y0.0391
G1 X0.4577 Y0.0354
G1 X0.4731 Y0.0288
G1 Y0.0287
G1 X0.4851 Y0.0165
G1 X0.4852 Y0.0164
G1 X0.49 Y-0.0008
G1 X0.4852 Y-0.018
G1 Y-0.0181
G1 X0.4733 Y-0.0304
G1 X0.4732 Y-0.0305
G1 X0.4578 Y-0.0371
G1 X0.4423 Y-0.04
G1 X0.4117 Y-0.0416
G1 X0.3881 Y-0.0406
G1 X0.3642 Y-0.0364
G1 X0.3486 Y-0.0294
G1 X0.3341 Y-0.0081
G1 X0.3335 Y-0.001
G1 X0.3382 Y0.0162
G1 Y0.0163
G1 X0.3502 Y0.0287
G1 X0.3503 Y0.0288
G1 X0.3657 Y0.0355
G1 X0.3812 Y0.0384
G1 X0.4117 Y0.04
G0 Z0.05
G0 Y0.0486
G0 Z0.0375
G1 F5.0 Z-0.03
G1 F10.0 X0.3912 Y0.0478
G1 X0.3911
G1 X0.3716 Y0.0448
G1 X0.3477 Y0.0348
G1 X0.3341 Y0.0203
G1 X0.3293 Y-0.0006
G1 Y-0.0009
G1 X0.3313 Y-0.0154
G1 X0.3378 Y-0.0276
G1 X0.3491 Y-0.0374
G1 X0.3635 Y-0.0441
G1 X0.3869 Y-0.0489
G1 X0.4117 Y-0.0501
G1 X0.4118
G1 X0.4391 Y-0.0485
G1 X0.4647 Y-0.0423
G1 X0.479 Y-0.0343
G1 X0.4904 Y-0.0198
G1 X0.4941 Y-0.0009
G1 Y-0.0007
G1 X0.492 Y0.0138
G1 X0.4856 Y0.026
G1 X0.4742 Y0.0358
G1 X0.4599 Y0.0425
G1 X0.4366 Y0.0473
G1 X0.4365
G1 X0.4118 Y0.0486
G1 X0.4117
G1 F5.0 Y0.0526
G1 F10.0 X0.3909 Y0.0518
G1 X0.3707 Y0.0487
G1 X0.3455 Y0.0382
G1 X0.3306 Y0.0222
G1 X0.3253 Y-0.0007
G1 Y-0.0008
G1 X0.3275 Y-0.0165
G1 X0.3347 Y-0.0301
G1 X0.347 Y-0.0408
G1 X0.3623 Y-0.0479
G1 X0.3865 Y-0.0529
G1 X0.4117 Y-0.0541
G1 X0.4118
G1 X0.4396 Y-0.0525
G1 X0.4661 Y-0.0461
G1 X0.4814 Y-0.0375
G1 X0.4941 Y-0.0214
G1 X0.4981 Y-0.0009
G1 Y-0.0007
G1 X0.4959 Y0.0149
G1 X0.4887 Y0.0285
G1 X0.4763 Y0.0393
G1 X0.4611 Y0.0463
G1 X0.4369 Y0.0513
G1 X0.4118 Y0.0526
G1 X0.4117
G0 Z0.05
G0 X0.291 Y0.001
G1 F5.0 Z-0.015
G1 F10.0 X0.009
G1 Y-0.001
G1 X0.291
G1 Y0.001
G1 F5.0 Y0.005
G1 F10.0 X0.005
G1 Y-0.005
G1 X0.295
G1 Y0.005
G1 X0.291
G1 F5.0 Y0.001
G1 Z-0.025
G1 F10.0 X0.009
G1 Y-0.001
G1 X0.291
G1 Y0.001
G1 F5.0 Y0.005
G1 F10.0 X0.005
G1 Y-0.005
G1 X0.295
G1 Y0.005
G1 X0.291
G1 F5.0 Y0.001
G1 Z-0.03
G1 F10.0 X0.009
G1 Y-0.001
G1 X0.291
G1 Y0.001
G1 F5.0 Y0.005
G1 F10.0 X0.005
G1 Y-0.005
G1 X0.295
G1 Y0.005
G1 X0.291
G0 Z0.05
G0 X0.191 Y0.099
G1 F5.0 Z-0.015
G1 F10.0 Y0.101
G1 X0.009
G1 Y0.099
G1 X0.191
G1 F5.0 Y0.095
G1 F10.0 X0.195
G1 Y0.105
G1 X0.005
G1 Y0.095
G1 X0.191
G1 F5.0 Y0.099
G1 Z-0.025
G1 F10.0 Y0.101
G1 X0.009
G1 Y0.099
G1 X0.191
G1 F5.0 Y0.095
G1 F10.0 X0.195
G1 Y0.105
G1 X0.005
G1 Y0.095
G1 X0.191
G1 F5.0 Y0.099
G1 Z-0.03
G1 F10.0 Y0.101
G1 X0.009
G1 Y0.099
G1 X0.191
G1 F5.0 Y0.095
G1 F10.0 X0.195
G1 Y0.105
G1 X0.005
G1 Y0.095
G1 X0.191
G0 Z0.05
G0 Y0.199
G1 F5.0 Z-0.015
G1 F10.0 Y0.201
G1 X0.009
G1 Y0.199
G1 X0.191
G1 F5.0 Y0.195
G1 F10.0 X0.195
G1 Y0.205
G1 X0.005
G1 Y0.195
G1 X0.191
G1 F5.0 Y0.199
G1 Z-0.025
G1 F10.0 Y0.201
G1 X0.009
G1 Y0.199
G1 X0.191
G1 F5.0 Y0.195
G1 F10.0 X0.195
G1 Y0.205
G1 X0.005
G1 Y0.195
G1 X0.191
G1 F5.0 Y0.199
G1 Z-0.03
G1 F10.0 Y0.201
G1 X0.009
G1 Y0.199
G1 X0.191
G1 F5.0 Y0.195
G1 F10.0 X0.195
G1 Y0.205
G1 X0.005
G1 Y0.195
G1 X0.191
G0 Z0.05
G0 Y0.299
G1 F5.0 Z-0.015
G1 F10.0 Y0.301
G1 X0.009
G1 Y0.299
G1 X0.191
G1 F5.0 Y0.295
G1 F10.0 X0.195
G1 Y0.305
G1 X0.005
G1 Y0.295
G1 X0.191
G1 F5.0 Y0.299
G1 Z-0.025
G1 F10.0 Y0.301
G1 X0.009
G1 Y0.299
G1 X0.191
G1 F5.0 Y0.295
G1 F10.0 X0.195
G1 Y0.305
G1 X0.005
G1 Y0.295
G1 X0.191
G1 F5.0 Y0.299
G1 Z-0.03
G1 F10.0 Y0.301
G1 X0.009
G1 Y0.299
G1 X0.191
G1 F5.0 Y0.295
G1 F10.0 X0.195
G1 Y0.305
G1 X0.005
G1 Y0.295
G1 X0.191
G0 Z0.05
G0 Y0.399
G1 F5.0 Z-0.015
G1 F10.0 Y0.401
G1 X0.009
G1 Y0.399
G1 X0.191
G1 F5.0 X0.195
G1 F10.0 Y0.405
G1 X0.005
G1 Y0.395
G1 X0.195
G1 Y0.399
G1 F5.0 X0.191
G1 Z-0.025
G1 F10.0 Y0.401
G1 X0.009
G1 Y0.399
G1 X0.191
G1 F5.0 X0.195
G1 F10.0 Y0.405
G1 X0.005
G1 Y0.395
G1 X0.195
G1 Y0.399
G1 F5.0 X0.191
G1 Z-0.03
G1 F10.0 Y0.401
G1 X0.009
G1 Y0.399
G1 X0.191
G1 F5.0 X0.195
G1 F10.0 Y0.405
G1 X0.005
G1 Y0.395
G1 X0.195
G1 Y0.399
G0 Z0.05
G0 Y0.499
G1 F5.0 Z-0.015
G1 F10.0 X0.241
G1 Y0.501
G1 X0.009
G1 Y0.499
G1 X0.195
G1 F5.0 Y0.495
G1 F10.0 X0.245
G1 Y0.505
G1 X0.005
G1 Y0.495
G1 X0.195
G1 F5.0 Y0.499
G1 Z-0.025
G1 F10.0 X0.241
G1 Y0.501
G1 X0.009
G1 Y0.499
G1 X0.195
G1 F5.0 Y0.495
G1 F10.0 X0.245
G1 Y0.505
G1 X0.005
G1 Y0.495
G1 X0.195
G1 F5.0 Y0.499
G1 Z-0.03
G1 F10.0 X0.241
G1 Y0.501
G1 X0.009
G1 Y0.499
G1 X0.195
G1 F5.0 Y0.495
G1 F10.0 X0.245
G1 Y0.505
G1 X0.005
G1 Y0.495
G1 X0.195
G0 Z0.05
G0 X0.191 Y0.599
G1 F5.0 Z-0.015
G1 F10.0 Y0.601
G1 X0.009
G1 Y0.599
G1 X0.191
G1 F5.0 X0.195
G1 F10.0 Y0.605
G1 X0.005
G1 Y0.595
G1 X0.195
G1 Y0.599
G1 F5.0 X0.191
G1 Z-0.025
G1 F10.0 Y0.601
G1 X0.009
G1 Y0.599
G1 X0.191
G1 F5.0 X0.195
G1 F10.0 Y0.605
G1 X0.005
G1 Y0.595
G1 X0.195
G1 Y0.599
G1 F5.0 X0.191
G1 Z-0.03
G1 F10.0 Y0.601
G1 X0.009
G1 Y0.599
G1 X0.191
G1 F5.0 X0.195
G1 F10.0 Y0.605
G1 X0.005
G1 Y0.595
G1 X0.195
G1 Y0.599
G0 Z0.05
G0 X0.191 Y0.699
G1 F5.0 Z-0.015
G1 F10.0 Y0.701
G1 X0.009
G1 Y0.699
G1 X0.191
G1 F5.0 X0.195
G1 F10.0 Y0.705
G1 X0.005
G1 Y0.695
G1 X0.195
G1 Y0.699
G1 F5.0 X0.191
G1 Z-0.025
G1 F10.0 Y0.701
G1 X0.009
G1 Y0.699
G1 X0.191
G1 F5.0 X0.195
G1 F10.0 Y0.705
G1 X0.005
G1 Y0.695
G1 X0.195
G1 Y0.699
G1 F5.0 X0.191
G1 Z-0.03
G1 F10.0 Y0.701
G1 X0.009
G1 Y0.699
G1 X0.191
G1 F5.0 X0.195
G1 F10.0 Y0.705
G1 X0.005
G1 Y0.695
G1 X0.195
G1 Y0.699
G0 Z0.05
G0 X0.191 Y0.799
G1 F5.0 Z-0.015
G1 F10.0 Y0.801
G1 X0.009
G1 Y0.799
G1 X0.191
G1 F5.0 Y0.795
G1 F10.0 X0.195
G1 Y0.805
G1 X0.005
G1 Y0.795
G1 X0.191
G1 F5.0 Y0.799
G1 Z-0.025
G1 F10.0 Y0.801
G1 X0.009
G1 Y0.799
G1 X0.191
G1 F5.0 Y0.795
G1 F10.0 X0.195
G1 Y0.805
G1 X0.005
G1 Y0.795
G1 X0.191
G1 F5.0 Y0.799
G1 Z-0.03
G1 F10.0 Y0.801
G1 X0.009
G1 Y0.799
G1 X0.191
G1 F5.0 Y0.795
G1 F10.0 X0.195
G1 Y0.805
G1 X0.005
G1 Y0.795
G1 X0.191
G0 Z0.05
G0 Y0.899
G1 F5.0 Z-0.015
G1 F10.0 Y0.901
G1 X0.009
G1 Y0.899
G1 X0.191
G1 F5.0 Y0.895
G1 F10.0 X0.195
G1 Y0.905
G1 X0.005
G1 Y0.895
G1 X0.191
G1 F5.0 Y0.899
G1 Z-0.025
G1 F10.0 Y0.901
G1 X0.009
G1 Y0.899
G1 X0.191
G1 F5.0 Y0.895
G1 F10.0 X0.195
G1 Y0.905
G1 X0.005
G1 Y0.895
G1 X0.191
G1 F5.0 Y0.899
G1 Z-0.03
G1 F10.0 Y0.901
G1 X0.009
G1 Y0.899
G1 X0.191
G1 F5.0 Y0.895
G1 F10.0 X0.195
G1 Y0.905
G1 X0.005
G1 Y0.895
G1 X0.191
G0 Z0.05
G0 Y0.999
G1 F5.0 Z-0.015
G1 F10.0 X0.291
G1 Y1.001
G1 X0.009
G1 Y0.999
G1 X0.191
G1 F5.0 Y0.995
G1 F10.0 X0.295
G1 Y1.005
G1 X0.005
G1 Y0.995
G1 X0.191
G1 F5.0 Y0.999
G1 Z-0.025
G1 F10.0 X0.291
G1 Y1.001
G1 X0.009
G1 Y0.999
G1 X0.191
G1 F5.0 Y0.995
G1 F10.0 X0.295
G1 Y1.005
G1 X0.005
G1 Y0.995
G1 X0.191
G1 F5.0 Y0.999
G1 Z-0.03
G1 F10.0 X0.291
G1 Y1.001
G1 X0.009
G1 Y0.999
G1 X0.191
G1 F5.0 Y0.995
G1 F10.0 X0.295
G1 Y1.005
G1 X0.005
G1 Y0.995
G1 X0.191
G0 Z0.05
G0 Y1.099
G1 F5.0 Z-0.015
G1 F10.0 Y1.101
G1 X0.009
G1 Y1.099
G1 X0.191
G1 F5.0 Y1.095
G1 F10.0 X0.195
G1 Y1.105
G1 X0.005
G1 Y1.095
G1 X0.191
G1 F5.0 Y1.099
G1 Z-0.025
G1 F10.0 Y1.101
G1 X0.009
G1 Y1.099
G1 X0.191
G1 F5.0 Y1.095
G1 F10.0 X0.195
G1 Y1.105
G1 X0.005
G1 Y1.095
G1 X0.191
G1 F5.0 Y1.099
G1 Z-0.03
G1 F10.0 Y1.101
G1 X0.009
G1 Y1.099
G1 X0.191
G1 F5.0 Y1.095
G1 F10.0 X0.195
G1 Y1.105
G1 X0.005
G1 Y1.095
G1 X0.191
G0 Z0.05
G0 Y1.199
G1 F5.0 Z-0.015
G1 F10.0 Y1.201
G1 X0.009
G1 Y1.199
G1 X0.191
G1 F5.0 X0.195
G1 F10.0 Y1.205
G1 X0.005
G1 Y1.195
G1 X0.195
G1 Y1.199
G1 F5.0 X0.191
G1 Z-0.025
G1 F10.0 Y1.201
G1 X0.009
G1 Y1.199
G1 X0.191
G1 F5.0 X0.195
G1 F10.0 Y1.205
G1 X0.005
G1 Y1.195
G1 X0.195
G1 Y1.199
G1 F5.0 X0.191
G1 Z-0.03
G1 F10.0 Y1.201
G1 X0.009
G1 Y1.199
G1 X0.191
G1 F5.0 X0.195
G1 F10.0 Y1.205
G1 X0.005
G1 Y1.195
G1 X0.195
G1 Y1.199
G0 Z0.05
G0 X0.191 Y1.299
G1 F5.0 Z-0.015
G1 F10.0 Y1.301
G1 X0.009
G1 Y1.299
G1 X0.191
G1 F5.0 X0.195
G1 F10.0 Y1.305
G1 X0.005
G1 Y1.295
G1 X0.195
G1 Y1.299
G1 F5.0 X0.191
G1 Z-0.025
G1 F10.0 Y1.301
G1 X0.009
G1 Y1.299
G1 X0.191
G1 F5.0 X0.195
G1 F10.0 Y1.305
G1 X0.005
G1 Y1.295
G1 X0.195
G1 Y1.299
G1 F5.0 X0.191
G1 Z-0.03
G1 F10.0 Y1.301
G1 X0.009
G1 Y1.299
G1 X0.191
G1 F5.0 X0.195
G1 F10.0 Y1.305
G1 X0.005
G1 Y1.295
G1 X0.195
G1 Y1.299
G0 Z0.05
G0 X0.191 Y1.399
G1 F5.0 Z-0.015
G1 F10.0 Y1.401
G1 X0.009
G1 Y1.399
G1 X0.191
G1 F5.0 X0.195
G1 F10.0 Y1.405
G1 X0.005
G1 Y1.395
G1 X0.195
G1 Y1.399
G1 F5.0 X0.191
G1 Z-0.025
G1 F10.0 Y1.401
G1 X0.009
G1 Y1.399
G1 X0.191
G1 F5.0 X0.195
G1 F10.0 Y1.405
G1 X0.005
G1 Y1.395
G1 X0.195
G1 Y1.399
G1 F5.0 X0.191
G1 Z-0.03
G1 F10.0 Y1.401
G1 X0.009
G1 Y1.399
G1 X0.191
G1 F5.0 X0.195
G1 F10.0 Y1.405
G1 X0.005
G1 Y1.395
G1 X0.195
G1 Y1.399
G0 Z0.05
G0 Y1.499
G1 F5.0 Z-0.015
G1 F10.0 X0.241
G1 Y1.501
G1 X0.009
G1 Y1.499
G1 X0.195
G1 F5.0 Y1.495
G1 F10.0 X0.245
G1 Y1.505
G1 X0.005
G1 Y1.495
G1 X0.195
G1 F5.0 Y1.499
G1 Z-0.025
G1 F10.0 X0.241
G1 Y1.501
G1 X0.009
G1 Y1.499
G1 X0.195
G1 F5.0 Y1.495
G1 F10.0 X0.245
G1 Y1.505
G1 X0.005
G1 Y1.495
G1 X0.195
G1 F5.0 Y1.499
G1 Z-0.03
G1 F10.0 X0.241
G1 Y1.501
G1 X0.009
G1 Y1.499
G1 X0.195
G1 F5.0 Y1.495
G1 F10.0 X0.245
G1 Y1.505
G1 X0.005
G1 Y1.495
G1 X0.195
G0 Z0.05
G0 X0.191 Y1.599
G1 F5.0 Z-0.015
G1 F10.0 Y1.601
G1 X0.009
G1 Y1.599
G1 X0.191
G1 F5.0 Y1.595
G1 F10.0 X0.195
G1 Y1.605
G1 X0.005
G1 Y1.595
G1 X0.191
G1 F5.0 Y1.599
G1 Z-0.025
G1 F10.0 Y1.601
G1 X0.009
G1 Y1.599
G1 X0.191
G1 F5.0 Y1.595
G1 F10.0 X0.195
G1 Y1.605
G1 X0.005
G1 Y1.595
G1 X0.191
G1 F5.0 Y1.599
G1 Z-0.03
G1 F10.0 Y1.601
G1 X0.009
G1 Y1.599
G1 X0.191
G1 F5.0 Y1.595
G1 F10.0 X0.195
G1 Y1.605
G1 X0.005
G1 Y1.595
G1 X0.191
G0 Z0.05
G0 Y1.699
G1 F5.0 Z-0.015
G1 F10.0 Y1.701
G1 X0.009
G1 Y1.699
G1 X0.191
G1 F5.0 Y1.695
G1 F10.0 X0.195
G1 Y1.705
G1 X0.005
G1 Y1.695
G1 X0.191
G1 F5.0 Y1.699
G1 Z-0.025
G1 F10.0 Y1.701
G1 X0.009
G1 Y1.699
G1 X0.191
G1 F5.0 Y1.695
G1 F10.0 X0.195
G1 Y1.705
G1 X0.005
G1 Y1.695
G1 X0.191
G1 F5.0 Y1.699
G1 Z-0.03
G1 F10.0 Y1.701
G1 X0.009
G1 Y1.699
G1 X0.191
G1 F5.0 Y1.695
G1 F10.0 X0.195
G1 Y1.705
G1 X0.005
G1 Y1.695
G1 X0.191
G0 Z0.05
G0 Y1.799
G1 F5.0 Z-0.015
G1 F10.0 Y1.801
G1 X0.009
G1 Y1.799
G1 X0.191
G1 F5.0 X0.195
G1 F10.0 Y1.805
G1 X0.005
G1 Y1.795
G1 X0.195
G1 Y1.799
G1 F5.0 X0.191
G1 Z-0.025
G1 F10.0 Y1.801
G1 X0.009
G1 Y1.799
G1 X0.191
G1 F5.0 X0.195
G1 F10.0 Y1.805
G1 X0.005
G1 Y1.795
G1 X0.195
G1 Y1.799
G1 F5.0 X0.191
G1 Z-0.03
G1 F10.0 Y1.801
G1 X0.009
G1 Y1.799
G1 X0.191
G1 F5.0 X0.195
G1 F10.0 Y1.805
G1 X0.005
G1 Y1.795
G1 X0.195
G1 Y1.799
G0 Z0.05
G0 X0.191 Y1.899
G1 F5.0 Z-0.015
G1 F10.0 Y1.901
G1 X0.009
G1 Y1.899
G1 X0.191
G1 F5.0 Y1.895
G1 F10.0 X0.195
G1 Y1.905
G1 X0.005
G1 Y1.895
G1 X0.191
G1 F5.0 Y1.899
G1 Z-0.025
G1 F10.0 Y1.901
G1 X0.009
G1 Y1.899
G1 X0.191
G1 F5.0 Y1.895
G1 F10.0 X0.195
G1 Y1.905
G1 X0.005
G1 Y1.895
G1 X0.191
G1 F5.0 Y1.899
G1 Z-0.03
G1 F10.0 Y1.901
G1 X0.009
G1 Y1.899
G1 X0.191
G1 F5.0 Y1.895
G1 F10.0 X0.195
G1 Y1.905
G1 X0.005
G1 Y1.895
G1 X0.191
G0 Z0.05
G0 Y1.999
G1 F5.0 Z-0.015
G1 F10.0 X0.291
G1 Y2.001
G1 X0.009
G1 Y1.999
G1 X0.191
G1 F5.0 Y1.995
G1 F10.0 X0.295
G1 Y2.005
G1 X0.005
G1 Y1.995
G1 X0.191
G1 F5.0 Y1.999
G1 Z-0.025
G1 F10.0 X0.291
G1 Y2.001
G1 X0.009
G1 Y1.999
G1 X0.191
G1 F5.0 Y1.995
G1 F10.0 X0.295
G1 Y2.005
G1 X0.005
G1 Y1.995
G1 X0.191
G1 F5.0 Y1.999
G1 Z-0.03
G1 F10.0 X0.291
G1 Y2.001
G1 X0.009
G1 Y1.999
G1 X0.191
G1 F5.0 Y1.995
G1 F10.0 X0.295
G1 Y2.005
G1 X0.005
G1 Y1.995
G1 X0.191
G0 Z0.05
G0 Y2.099
G1 F5.0 Z-0.015
G1 F10.0 Y2.101
G1 X0.009
G1 Y2.099
G1 X0.191
G1 F5.0 X0.195
G1 F10.0 Y2.105
G1 X0.005
G1 Y2.095
G1 X0.195
G1 Y2.099
G1 F5.0 X0.191
G1 Z-0.025
G1 F10.0 Y2.101
G1 X0.009
G1 Y2.099
G1 X0.191
G1 F5.0 X0.195
G1 F10.0 Y2.105
G1 X0.005
G1 Y2.095
G1 X0.195
G1 Y2.099
G1 F5.0 X0.191
G1 Z-0.03
G1 F10.0 Y2.101
G1 X0.009
G1 Y2.099
G1 X0.191
G1 F5.0 X0.195
G1 F10.0 Y2.105
G1 X0.005
G1 Y2.095
G1 X0.195
G1 Y2.099
G0 Z0.05
G0 X0.191 Y2.199
G1 F5.0 Z-0.015
G1 F10.0 Y2.201
G1 X0.009
G1 Y2.199
G1 X0.191
G1 F5.0 Y2.195
G1 F10.0 X0.195
G1 Y2.205
G1 X0.005
G1 Y2.195
G1 X0.191
G1 F5.0 Y2.199
G1 Z-0.025
G1 F10.0 Y2.201
G1 X0.009
G1 Y2.199
G1 X0.191
G1 F5.0 Y2.195
G1 F10.0 X0.195
G1 Y2.205
G1 X0.005
G1 Y2.195
G1 X0.191
G1 F5.0 Y2.199
G1 Z-0.03
G1 F10.0 Y2.201
G1 X0.009
G1 Y2.199
G1 X0.191
G1 F5.0 Y2.195
G1 F10.0 X0.195
G1 Y2.205
G1 X0.005
G1 Y2.195
G1 X0.191
G0 Z0.05
G0 Y2.299
G1 F5.0 Z-0.015
G1 F10.0 Y2.301
G1 X0.009
G1 Y2.299
G1 X0.191
G1 F5.0 Y2.295
G1 F10.0 X0.195
G1 Y2.305
G1 X0.005
G1 Y2.295
G1 X0.191
G1 F5.0 Y2.299
G1 Z-0.025
G1 F10.0 Y2.301
G1 X0.009
G1 Y2.299
G1 X0.191
G1 F5.0 Y2.295
G1 F10.0 X0.195
G1 Y2.305
G1 X0.005
G1 Y2.295
G1 X0.191
G1 F5.0 Y2.299
G1 Z-0.03
G1 F10.0 Y2.301
G1 X0.009
G1 Y2.299
G1 X0.191
G1 F5.0 Y2.295
G1 F10.0 X0.195
G1 Y2.305
G1 X0.005
G1 Y2.295
G1 X0.191
G0 Z0.05
G0 Y2.399
G1 F5.0 Z-0.015
G1 F10.0 Y2.401
G1 X0.009
G1 Y2.399
G1 X0.191
G1 F5.0 X0.195
G1 F10.0 Y2.405
G1 X0.005
G1 Y2.395
G1 X0.195
G1 Y2.399
G1 F5.0 X0.191
G1 Z-0.025
G1 F10.0 Y2.401
G1 X0.009
G1 Y2.399
G1 X0.191
G1 F5.0 X0.195
G1 F10.0 Y2.405
G1 X0.005
G1 Y2.395
G1 X0.195
G1 Y2.399
G1 F5.0 X0.191
G1 Z-0.03
G1 F10.0 Y2.401
G1 X0.009
G1 Y2.399
G1 X0.191
G1 F5.0 X0.195
G1 F10.0 Y2.405
G1 X0.005
G1 Y2.395
G1 X0.195
G1 Y2.399
G0 Z0.05
G0 Y2.499
G1 F5.0 Z-0.015
G1 F10.0 X0.241
G1 Y2.501
G1 X0.009
G1 Y2.499
G1 X0.195
G1 F5.0 Y2.495
G1 F10.0 X0.245
G1 Y2.505
G1 X0.005
G1 Y2.495
G1 X0.195
G1 F5.0 Y2.499
G1 Z-0.025
G1 F10.0 X0.241
G1 Y2.501
G1 X0.009
G1 Y2.499
G1 X0.195
G1 F5.0 Y2.495
G1 F10.0 X0.245
G1 Y2.505
G1 X0.005
G1 Y2.495
G1 X0.195
G1 F5.0 Y2.499
G1 Z-0.03
G1 F10.0 X0.241
G1 Y2.501
G1 X0.009
G1 Y2.499
G1 X0.195
G1 F5.0 Y2.495
G1 F10.0 X0.245
G1 Y2.505
G1 X0.005
G1 Y2.495
G1 X0.195
G0 Z0.05
G0 X0.191 Y2.599
G1 F5.0 Z-0.015
G1 F10.0 Y2.601
G1 X0.009
G1 Y2.599
G1 X0.191
G1 F5.0 X0.195
G1 F10.0 Y2.605
G1 X0.005
G1 Y2.595
G1 X0.195
G1 Y2.599
G1 F5.0 X0.191
G1 Z-0.025
G1 F10.0 Y2.601
G1 X0.009
G1 Y2.599
G1 X0.191
G1 F5.0 X0.195
G1 F10.0 Y2.605
G1 X0.005
G1 Y2.595
G1 X0.195
G1 Y2.599
G1 F5.0 X0.191
G1 Z-0.03
G1 F10.0 Y2.601
G1 X0.009
G1 Y2.599
G1 X0.191
G1 F5.0 X0.195
G1 F10.0 Y2.605
G1 X0.005
G1 Y2.595
G1 X0.195
G1 Y2.599
G0 Z0.05
G0 X0.191 Y2.699
G1 F5.0 Z-0.015
G1 F10.0 Y2.701
G1 X0.009
G1 Y2.699
G1 X0.191
G1 F5.0 X0.195
G1 F10.0 Y2.705
G1 X0.005
G1 Y2.695
G1 X0.195
G1 Y2.699
G1 F5.0 X0.191
G1 Z-0.025
G1 F10.0 Y2.701
G1 X0.009
G1 Y2.699
G1 X0.191
G1 F5.0 X0.195
G1 F10.0 Y2.705
G1 X0.005
G1 Y2.695
G1 X0.195
G1 Y2.699
G1 F5.0 X0.191
G1 Z-0.03
G1 F10.0 Y2.701
G1 X0.009
G1 Y2.699
G1 X0.191
G1 F5.0 X0.195
G1 F10.0 Y2.705
G1 X0.005
G1 Y2.695
G1 X0.195
G1 Y2.699
G0 Z0.05
G0 X0.191 Y2.799
G1 F5.0 Z-0.015
G1 F10.0 Y2.801
G1 X0.009
G1 Y2.799
G1 X0.191
G1 F5.0 Y2.795
G1 F10.0 X0.195
G1 Y2.805
G1 X0.005
G1 Y2.795
G1 X0.191
G1 F5.0 Y2.799
G1 Z-0.025
G1 F10.0 Y2.801
G1 X0.009
G1 Y2.799
G1 X0.191
G1 F5.0 Y2.795
G1 F10.0 X0.195
G1 Y2.805
G1 X0.005
G1 Y2.795
G1 X0.191
G1 F5.0 Y2.799
G1 Z-0.03
G1 F10.0 Y2.801
G1 X0.009
G1 Y2.799
G1 X0.191
G1 F5.0 Y2.795
G1 F10.0 X0.195
G1 Y2.805
G1 X0.005
G1 Y2.795
G1 X0.191
G0 Z0.05
G0 Y2.899
G1 F5.0 Z-0.015
G1 F10.0 Y2.901
G1 X0.009
G1 Y2.899
G1 X0.191
G1 F5.0 Y2.895
G1 F10.0 X0.195
G1 Y2.905
G1 X0.005
G1 Y2.895
G1 X0.191
G1 F5.0 Y2.899
G1 Z-0.025
G1 F10.0 Y2.901
G1 X0.009
G1 Y2.899
G1 X0.191
G1 F5.0 Y2.895
G1 F10.0 X0.195
G1 Y2.905
G1 X0.005
G1 Y2.895
G1 X0.191
G1 F5.0 Y2.899
G1 Z-0.03
G1 F10.0 Y2.901
G1 X0.009
G1 Y2.899
G1 X0.191
G1 F5.0 Y2.895
G1 F10.0 X0.195
G1 Y2.905
G1 X0.005
G1 Y2.895
G1 X0.191
G0 Z0.05
G0 Y2.999
G1 F5.0 Z-0.015
G1 F10.0 X0.291
G1 Y3.001
G1 X0.009
G1 Y2.999
G1 X0.191
G1 F5.0 Y2.995
G1 F10.0 X0.295
G1 Y3.005
G1 X0.005
G1 Y2.995
G1 X0.191
G1 F5.0 Y2.999
G1 Z-0.025
G1 F10.0 X0.291
G1 Y3.001
G1 X0.009
G1 Y2.999
G1 X0.191
G1 F5.0 Y2.995
G1 F10.0 X0.295
G1 Y3.005
G1 X0.005
G1 Y2.995
G1 X0.191
G1 F5.0 Y2.999
G1 Z-0.03
G1 F10.0 X0.291
G1 Y3.001
G1 X0.009
G1 Y2.999
G1 X0.191
G1 F5.0 Y2.995
G1 F10.0 X0.295
G1 Y3.005
G1 X0.005
G1 Y2.995
G1 X0.191
G0 Z0.05
G0 Y3.099
G1 F5.0 Z-0.015
G1 F10.0 Y3.101
G1 X0.009
G1 Y3.099
G1 X0.191
G1 F5.0 X0.195
G1 F10.0 Y3.105
G1 X0.005
G1 Y3.095
G1 X0.195
G1 Y3.099
G1 F5.0 X0.191
G1 Z-0.025
G1 F10.0 Y3.101
G1 X0.009
G1 Y3.099
G1 X0.191
G1 F5.0 X0.195
G1 F10.0 Y3.105
G1 X0.005
G1 Y3.095
G1 X0.195
G1 Y3.099
G1 F5.0 X0.191
G1 Z-0.03
G1 F10.0 Y3.101
G1 X0.009
G1 Y3.099
G1 X0.191
G1 F5.0 X0.195
G1 F10.0 Y3.105
G1 X0.005
G1 Y3.095
G1 X0.195
G1 Y3.099
G0 Z0.05
G0 X0.191 Y3.199
G1 F5.0 Z-0.015
G1 F10.0 Y3.201
G1 X0.009
G1 Y3.199
G1 X0.191
G1 F5.0 X0.195
G1 F10.0 Y3.205
G1 X0.005
G1 Y3.195
G1 X0.195
G1 Y3.199
G1 F5.0 X0.191
G1 Z-0.025
G1 F10.0 Y3.201
G1 X0.009
G1 Y3.199
G1 X0.191
G1 F5.0 X0.195
G1 F10.0 Y3.205
G1 X0.005
G1 Y3.195
G1 X0.195
G1 Y3.199
G1 F5.0 X0.191
G1 Z-0.03
G1 F10.0 Y3.201
G1 X0.009
G1 Y3.199
G1 X0.191
G1 F5.0 X0.195
G1 F10.0 Y3.205
G1 X0.005
G1 Y3.195
G1 X0.195
G1 Y3.199
G0 Z0.05
G0 X0.191 Y3.299
G1 F5.0 Z-0.015
G1 F10.0 Y3.301
G1 X0.009
G1 Y3.299
G1 X0.191
G1 F5.0 Y3.295
G1 F10.0 X0.195
G1 Y3.305
G1 X0.005
G1 Y3.295
G1 X0.191
G1 F5.0 Y3.299
G1 Z-0.025
G1 F10.0 Y3.301
G1 X0.009
G1 Y3.299
G1 X0.191
G1 F5.0 Y3.295
G1 F10.0 X0.195
G1 Y3.305
G1 X0.005
G1 Y3.295
G1 X0.191
G1 F5.0 Y3.299
G1 Z-0.03
G1 F10.0 Y3.301
G1 X0.009
G1 Y3.299
G1 X0.191
G1 F5.0 Y3.295
G1 F10.0 X0.195
G1 Y3.305
G1 X0.005
G1 Y3.295
G1 X0.191
G0 Z0.05
G0 Y3.399
G1 F5.0 Z-0.015
G1 F10.0 Y3.401
G1 X0.009
G1 Y3.399
G1 X0.191
G1 F5.0 X0.195
G1 F10.0 Y3.405
G1 X0.005
G1 Y3.395
G1 X0.195
G1 Y3.399
G1 F5.0 X0.191
G1 Z-0.025
G1 F10.0 Y3.401
G1 X0.009
G1 Y3.399
G1 X0.191
G1 F5.0 X0.195
G1 F10.0 Y3.405
G1 X0.005
G1 Y3.395
G1 X0.195
G1 Y3.399
G1 F5.0 X0.191
G1 Z-0.03
G1 F10.0 Y3.401
G1 X0.009
G1 Y3.399
G1 X0.191
G1 F5.0 X0.195
G1 F10.0 Y3.405
G1 X0.005
G1 Y3.395
G1 X0.195
G1 Y3.399
G0 Z0.05
G0 Y3.499
G1 F5.0 Z-0.015
G1 F10.0 X0.241
G1 Y3.501
G1 X0.009
G1 Y3.499
G1 X0.195
G1 F5.0 Y3.495
G1 F10.0 X0.245
G1 Y3.505
G1 X0.005
G1 Y3.495
G1 X0.195
G1 F5.0 Y3.499
G1 Z-0.025
G1 F10.0 X0.241
G1 Y3.501
G1 X0.009
G1 Y3.499
G1 X0.195
G1 F5.0 Y3.495
G1 F10.0 X0.245
G1 Y3.505
G1 X0.005
G1 Y3.495
G1 X0.195
G1 F5.0 Y3.499
G1 Z-0.03
G1 F10.0 X0.241
G1 Y3.501
G1 X0.009
G1 Y3.499
G1 X0.195
G1 F5.0 Y3.495
G1 F10.0 X0.245
G1 Y3.505
G1 X0.005
G1 Y3.495
G1 X0.195
G0 Z0.05
G0 X0.191 Y3.599
G1 F5.0 Z-0.015
G1 F10.0 Y3.601
G1 X0.009
G1 Y3.599
G1 X0.191
G1 F5.0 X0.195
G1 F10.0 Y3.605
G1 X0.005
G1 Y3.595
G1 X0.195
G1 Y3.599
G1 F5.0 X0.191
G1 Z-0.025
G1 F10.0 Y3.601
G1 X0.009
G1 Y3.599
G1 X0.191
G1 F5.0 X0.195
G1 F10.0 Y3.605
G1 X0.005
G1 Y3.595
G1 X0.195
G1 Y3.599
G1 F5.0 X0.191
G1 Z-0.03
G1 F10.0 Y3.601
G1 X0.009
G1 Y3.599
G1 X0.191
G1 F5.0 X0.195
G1 F10.0 Y3.605
G1 X0.005
G1 Y3.595
G1 X0.195
G1 Y3.599
G0 Z0.05
G0 X0.191 Y3.699
G1 F5.0 Z-0.015
G1 F10.0 Y3.701
G1 X0.009
G1 Y3.699
G1 X0.191
G1 F5.0 Y3.695
G1 F10.0 X0.195
G1 Y3.705
G1 X0.005
G1 Y3.695
G1 X0.191
G1 F5.0 Y3.699
G1 Z-0.025
G1 F10.0 Y3.701
G1 X0.009
G1 Y3.699
G1 X0.191
G1 F5.0 Y3.695
G1 F10.0 X0.195
G1 Y3.705
G1 X0.005
G1 Y3.695
G1 X0.191
G1 F5.0 Y3.699
G1 Z-0.03
G1 F10.0 Y3.701
G1 X0.009
G1 Y3.699
G1 X0.191
G1 F5.0 Y3.695
G1 F10.0 X0.195
G1 Y3.705
G1 X0.005
G1 Y3.695
G1 X0.191
G0 Z0.05
G0 Y3.799
G1 F5.0 Z-0.015
G1 F10.0 Y3.801
G1 X0.009
G1 Y3.799
G1 X0.191
G1 F5.0 X0.195
G1 F10.0 Y3.805
G1 X0.005
G1 Y3.795
G1 X0.195
G1 Y3.799
G1 F5.0 X0.191
G1 Z-0.025
G1 F10.0 Y3.801
G1 X0.009
G1 Y3.799
G1 X0.191
G1 F5.0 X0.195
G1 F10.0 Y3.805
G1 X0.005
G1 Y3.795
G1 X0.195
G1 Y3.799
G1 F5.0 X0.191
G1 Z-0.03
G1 F10.0 Y3.801
G1 X0.009
G1 Y3.799
G1 X0.191
G1 F5.0 X0.195
G1 F10.0 Y3.805
G1 X0.005
G1 Y3.795
G1 X0.195
G1 Y3.799
G0 Z0.05
G0 X0.191 Y3.899
G1 F5.0 Z-0.015
G1 F10.0 Y3.901
G1 X0.009
G1 Y3.899
G1 X0.191
G1 F5.0 Y3.895
G1 F10.0 X0.195
G1 Y3.905
G1 X0.005
G1 Y3.895
G1 X0.191
G1 F5.0 Y3.899
G1 Z-0.025
G1 F10.0 Y3.901
G1 X0.009
G1 Y3.899
G1 X0.191
G1 F5.0 Y3.895
G1 F10.0 X0.195
G1 Y3.905
G1 X0.005
G1 Y3.895
G1 X0.191
G1 F5.0 Y3.899
G1 Z-0.03
G1 F10.0 Y3.901
G1 X0.009
G1 Y3.899
G1 X0.191
G1 F5.0 Y3.895
G1 F10.0 X0.195
G1 Y3.905
G1 X0.005
G1 Y3.895
G1 X0.191
G0 Z0.05
G0 Y3.999
G1 F5.0 Z-0.015
G1 F10.0 X0.291
G1 Y4.001
G1 X0.009
G1 Y3.999
G1 X0.191
G1 F5.0 Y3.995
G1 F10.0 X0.295
G1 Y4.005
G1 X0.005
G1 Y3.995
G1 X0.191
G1 F5.0 Y3.999
G1 Z-0.025
G1 F10.0 X0.291
G1 Y4.001
G1 X0.009
G1 Y3.999
G1 X0.191
G1 F5.0 Y3.995
G1 F10.0 X0.295
G1 Y4.005
G1 X0.005
G1 Y3.995
G1 X0.191
G1 F5.0 Y3.999
G1 Z-0.03
G1 F10.0 X0.291
G1 Y4.001
G1 X0.009
G1 Y3.999
G1 X0.191
G1 F5.0 Y3.995
G1 F10.0 X0.295
G1 Y4.005
G1 X0.005
G1 Y3.995
G1 X0.191
G0 Z0.05
G0 Y4.099
G1 F5.0 Z-0.015
G1 F10.0 Y4.101
G1 X0.009
G1 Y4.099
G1 X0.191
G1 F5.0 Y4.095
G1 F10.0 X0.195
G1 Y4.105
G1 X0.005
G1 Y4.095
G1 X0.191
G1 F5.0 Y4.099
G1 Z-0.025
G1 F10.0 Y4.101
G1 X0.009
G1 Y4.099
G1 X0.191
G1 F5.0 Y4.095
G1 F10.0 X0.195
G1 Y4.105
G1 X0.005
G1 Y4.095
G1 X0.191
G1 F5.0 Y4.099
G1 Z-0.03
G1 F10.0 Y4.101
G1 X0.009
G1 Y4.099
G1 X0.191
G1 F5.0 Y4.095
G1 F10.0 X0.195
G1 Y4.105
G1 X0.005
G1 Y4.095
G1 X0.191
G0 Z0.05
G0 Y4.199
G1 F5.0 Z-0.015
G1 F10.0 Y4.201
G1 X0.009
G1 Y4.199
G1 X0.191
G1 F5.0 Y4.195
G1 F10.0 X0.195
G1 Y4.205
G1 X0.005
G1 Y4.195
G1 X0.191
G1 F5.0 Y4.199
G1 Z-0.025
G1 F10.0 Y4.201
G1 X0.009
G1 Y4.199
G1 X0.191
G1 F5.0 Y4.195
G1 F10.0 X0.195
G1 Y4.205
G1 X0.005
G1 Y4.195
G1 X0.191
G1 F5.0 Y4.199
G1 Z-0.03
G1 F10.0 Y4.201
G1 X0.009
G1 Y4.199
G1 X0.191
G1 F5.0 Y4.195
G1 F10.0 X0.195
G1 Y4.205
G1 X0.005
G1 Y4.195
G1 X0.191
G0 Z0.05
G0 Y4.299
G1 F5.0 Z-0.015
G1 F10.0 Y4.301
G1 X0.009
G1 Y4.299
G1 X0.191
G1 F5.0 X0.195
G1 F10.0 Y4.305
G1 X0.005
G1 Y4.295
G1 X0.195
G1 Y4.299
G1 F5.0 X0.191
G1 Z-0.025
G1 F10.0 Y4.301
G1 X0.009
G1 Y4.299
G1 X0.191
G1 F5.0 X0.195
G1 F10.0 Y4.305
G1 X0.005
G1 Y4.295
G1 X0.195
G1 Y4.299
G1 F5.0 X0.191
G1 Z-0.03
G1 F10.0 Y4.301
G1 X0.009
G1 Y4.299
G1 X0.191
G1 F5.0 X0.195
G1 F10.0 Y4.305
G1 X0.005
G1 Y4.295
G1 X0.195
G1 Y4.299
G0 Z0.05
G0 X0.191 Y4.399
G1 F5.0 Z-0.015
G1 F10.0 Y4.401
G1 X0.009
G1 Y4.399
G1 X0.191
G1 F5.0 X0.195
G1 F10.0 Y4.405
G1 X0.005
G1 Y4.395
G1 X0.195
G1 Y4.399
G1 F5.0 X0.191
G1 Z-0.025
G1 F10.0 Y4.401
G1 X0.009
G1 Y4.399
G1 X0.191
G1 F5.0 X0.195
G1 F10.0 Y4.405
G1 X0.005
G1 Y4.395
G1 X0.195
G1 Y4.399
G1 F5.0 X0.191
G1 Z-0.03
G1 F10.0 Y4.401
G1 X0.009
G1 Y4.399
G1 X0.191
G1 F5.0 X0.195
G1 F10.0 Y4.405
G1 X0.005
G1 Y4.395
G1 X0.195
G1 Y4.399
G0 Z0.05
G0 Y4.499
G1 F5.0 Z-0.015
G1 F10.0 X0.241
G1 Y4.501
G1 X0.009
G1 Y4.499
G1 X0.195
G1 F5.0 Y4.495
G1 F10.0 X0.245
G1 Y4.505
G1 X0.005
G1 Y4.495
G1 X0.195
G1 F5.0 Y4.499
G1 Z-0.025
G1 F10.0 X0.241
G1 Y4.501
G1 X0.009
G1 Y4.499
G1 X0.195
G1 F5.0 Y4.495
G1 F10.0 X0.245
G1 Y4.505
G1 X0.005
G1 Y4.495
G1 X0.195
G1 F5.0 Y4.499
G1 Z-0.03
G1 F10.0 X0.241
G1 Y4.501
G1 X0.009
G1 Y4.499
G1 X0.195
G1 F5.0 Y4.495
G1 F10.0 X0.245
G1 Y4.505
G1 X0.005
G1 Y4.495
G1 X0.195
G0 Z0.05
G0 X0.191 Y4.599
G1 F5.0 Z-0.015
G1 F10.0 Y4.601
G1 X0.009
G1 Y4.599
G1 X0.191
G1 F5.0 Y4.595
G1 F10.0 X0.195
G1 Y4.605
G1 X0.005
G1 Y4.595
G1 X0.191
G1 F5.0 Y4.599
G1 Z-0.025
G1 F10.0 Y4.601
G1 X0.009
G1 Y4.599
G1 X0.191
G1 F5.0 Y4.595
G1 F10.0 X0.195
G1 Y4.605
G1 X0.005
G1 Y4.595
G1 X0.191
G1 F5.0 Y4.599
G1 Z-0.03
G1 F10.0 Y4.601
G1 X0.009
G1 Y4.599
G1 X0.191
G1 F5.0 Y4.595
G1 F10.0 X0.195
G1 Y4.605
G1 X0.005
G1 Y4.595
G1 X0.191
G0 Z0.05
G0 Y4.699
G1 F5.0 Z-0.015
G1 F10.0 Y4.701
G1 X0.009
G1 Y4.699
G1 X0.191
G1 F5.0 X0.195
G1 F10.0 Y4.705
G1 X0.005
G1 Y4.695
G1 X0.195
G1 Y4.699
G1 F5.0 X0.191
G1 Z-0.025
G1 F10.0 Y4.701
G1 X0.009
G1 Y4.699
G1 X0.191
G1 F5.0 X0.195
G1 F10.0 Y4.705
G1 X0.005
G1 Y4.695
G1 X0.195
G1 Y4.699
G1 F5.0 X0.191
G1 Z-0.03
G1 F10.0 Y4.701
G1 X0.009
G1 Y4.699
G1 X0.191
G1 F5.0 X0.195
G1 F10.0 Y4.705
G1 X0.005
G1 Y4.695
G1 X0.195
G1 Y4.699
G0 Z0.05
G0 X0.191 Y4.799
G1 F5.0 Z-0.015
G1 F10.0 Y4.801
G1 X0.009
G1 Y4.799
G1 X0.191
G1 F5.0 Y4.795
G1 F10.0 X0.195
G1 Y4.805
G1 X0.005
G1 Y4.795
G1 X0.191
G1 F5.0 Y4.799
G1 Z-0.025
G1 F10.0 Y4.801
G1 X0.009
G1 Y4.799
G1 X0.191
G1 F5.0 Y4.795
G1 F10.0 X0.195
G1 Y4.805
G1 X0.005
G1 Y4.795
G1 X0.191
G1 F5.0 Y4.799
G1 Z-0.03
G1 F10.0 Y4.801
G1 X0.009
G1 Y4.799
G1 X0.191
G1 F5.0 Y4.795
G1 F10.0 X0.195
G1 Y4.805
G1 X0.005
G1 Y4.795
G1 X0.191
G0 Z0.05
G0 Y4.899
G1 F5.0 Z-0.015
G1 F10.0 Y4.901
G1 X0.009
G1 Y4.899
G1 X0.191
G1 F5.0 X0.195
G1 F10.0 Y4.905
G1 X0.005
G1 Y4.895
G1 X0.195
G1 Y4.899
G1 F5.0 X0.191
G1 Z-0.025
G1 F10.0 Y4.901
G1 X0.009
G1 Y4.899
G1 X0.191
G1 F5.0 X0.195
G1 F10.0 Y4.905
G1 X0.005
G1 Y4.895
G1 X0.195
G1 Y4.899
G1 F5.0 X0.191
G1 Z-0.03
G1 F10.0 Y4.901
G1 X0.009
G1 Y4.899
G1 X0.191
G1 F5.0 X0.195
G1 F10.0 Y4.905
G1 X0.005
G1 Y4.895
G1 X0.195
G1 Y4.899
G0 Z0.05
G0 X0.3758 Y4.1132
G1 F5.0 Z-0.015
G1 F10.0 X0.3805 Y4.1138
G1 X0.4118 Y4.1155
G1 X0.4351 Y4.1146
G1 X0.4473 Y4.1132
G1 X0.4364 Y4.1148
G1 X0.4363
G1 X0.4118 Y4.1161
G1 X0.4117
G1 X0.3913 Y4.1153
G1 X0.3758 Y4.1132
G0 Z0.05
G0 X0.3719 Y4.0251
G1 F5.0 Z-0.015
G1 F10.0 X0.3871 Y4.0226
G1 X0.4117 Y4.0214
G1 X0.4118
G1 X0.4388 Y4.023
G1 X0.4389
G1 X0.4444 Y4.0238
G1 X0.443 Y4.0236
G1 X0.4117 Y4.022
G1 X0.3876 Y4.023
G1 X0.3719 Y4.0251
G1 F5.0 X0.3723 Y4.0271
G1 F10.0 X0.3632 Y4.0293
G1 X0.3464 Y4.0368
G1 X0.3306 Y4.059
G1 X0.3295 Y4.0685
G1 X0.3348 Y4.0878
G1 Y4.0879
G1 X0.348 Y4.1016
G1 X0.3481
G1 X0.3647 Y4.1088
G1 X0.3807 Y4.1118
G1 X0.4118 Y4.1135
G1 X0.4349 Y4.1126
G1 X0.4587 Y4.1088
G1 X0.4753 Y4.1016
G1 X0.4885 Y4.0882
G1 X0.4886 Y4.088
G1 X0.494 Y4.0687
G1 X0.4887 Y4.0495
G1 X0.4886 Y4.0493
G1 X0.4755 Y4.0358
G1 X0.4753 Y4.0357
G1 X0.4587 Y4.0286
G1 X0.4428 Y4.0256
G1 X0.4427
G1 X0.4117 Y4.024
G1 X0.3877 Y4.025
G1 X0.3723 Y4.0271
G1 F5.0 X0.3731 Y4.031
G1 F10.0 X0.3642 Y4.0331
G1 X0.3486 Y4.0401
G1 X0.3341 Y4.0614
G1 X0.3335 Y4.0685
G1 X0.3382 Y4.0857
G1 Y4.0858
G1 X0.3502 Y4.0983
G1 X0.3503
G1 X0.3657 Y4.105
G1 X0.3812 Y4.1079
G1 X0.4118 Y4.1095
G1 X0.4346 Y4.1086
G1 X0.4577 Y4.105
G1 X0.4731 Y4.0983
G1 X0.4851 Y4.086
G1 X0.4852 Y4.0859
G1 X0.49 Y4.0687
G1 X0.4852 Y4.0515
G1 Y4.0514
G1 X0.4733 Y4.0391
G1 X0.4732 Y4.039
G1 X0.4578 Y4.0324
G1 X0.4423 Y4.0296
G1 X0.4117 Y4.028
G1 X0.3881 Y4.0289
G1 X0.3731 Y4.031
G0 Z0.05
G0 X0.3712 Y4.0232
G1 F5.0 Z-0.015
G1 F10.0 X0.3869 Y4.0206
G1 X0.4117 Y4.0194
G1 X0.4118
G1 X0.4391 Y4.021
G1 X0.4647 Y4.0272
G1 X0.479 Y4.0352
G1 X0.4904 Y4.0498
G1 X0.4941 Y4.0686
G1 Y4.0688
G1 X0.492 Y4.0833
G1 X0.4856 Y4.0955
G1 X0.4742 Y4.1054
G1 X0.4599 Y4.112
G1 X0.4366 Y4.1168
G1 X0.4365
G1 X0.4118 Y4.1181
G1 X0.4117
G1 X0.3912 Y4.1173
G1 X0.3911
G1 X0.3716 Y4.1143
G1 X0.3477 Y4.1043
G1 X0.3341 Y4.0898
G1 X0.3293 Y4.0689
G1 Y4.0686
G1 X0.3313 Y4.0541
G1 X0.3378 Y4.042
G1 X0.3491 Y4.0321
G1 X0.3635 Y4.0254
G1 X0.3712 Y4.0232
G1 F5.0 X0.3703 Y4.0194
G1 F10.0 X0.3865 Y4.0166
G1 X0.4117 Y4.0154
G1 X0.4118
G1 X0.4396 Y4.017
G1 X0.4661 Y4.0234
G1 X0.4814 Y4.032
G1 X0.4941 Y4.0482
G1 X0.4981 Y4.0686
G1 Y4.0688
G1 X0.4959 Y4.0845
G1 X0.4887 Y4.098
G1 X0.4763 Y4.1088
G1 X0.4611 Y4.1158
G1 X0.4369 Y4.1208
G1 X0.4118 Y4.1221
G1 X0.4117
G1 X0.3909 Y4.1213
G1 X0.3707 Y4.1182
G1 X0.3455 Y4.1077
G1 X0.3306 Y4.0917
G1 X0.3253 Y4.0688
G1 Y4.0687
G1 X0.3275 Y4.053
G1 X0.3347 Y4.0394
G1 X0.347 Y4.0287
G1 X0.3623 Y4.0216
G1 X0.3703 Y4.0194
G1 F5.0 X0.3719 Y4.0251
G1 Z-0.025
G1 F10.0 X0.3871 Y4.0226
G1 X0.4117 Y4.0214
G1 X0.4118
G1 X0.4388 Y4.023
G1 X0.4389
G1 X0.4444 Y4.0238
G1 X0.443 Y4.0236
G1 X0.4117 Y4.022
G1 X0.3876 Y4.023
G1 X0.3719 Y4.0251
G0 Z0.05
G0 X0.3758 Y4.1132
G0 Z0.0475
G1 F5.0 Z-0.025
G1 F10.0 X0.3805 Y4.1138
G1 X0.4118 Y4.1155
G1 X0.4351 Y4.1146
G1 X0.4473 Y4.1132
G1 X0.4364 Y4.1148
G1 X0.4363
G1 X0.4118 Y4.1161
G1 X0.4117
G1 X0.3913 Y4.1153
G1 X0.3758 Y4.1132
G1 F5.0 X0.3761 Y4.1112
G1 F10.0 X0.3807 Y4.1118
G1 X0.4118 Y4.1135
G1 X0.4349 Y4.1126
G1 X0.4587 Y4.1088
G1 X0.4753 Y4.1016
G1 X0.4885 Y4.0882
G1 X0.4886 Y4.088
G1 X0.494 Y4.0687
G1 X0.4887 Y4.0495
G1 X0.4886 Y4.0493
G1 X0.4755 Y4.0358
G1 X0.4753 Y4.0357
G1 X0.4587 Y4.0286
G1 X0.4428 Y4.0256
G1 X0.4427
G1 X0.4117 Y4.024
G1 X0.3877 Y4.025
G1 X0.3632 Y4.0293
G1 X0.3464 Y4.0368
G1 X0.3306 Y4.059
G1 X0.3295 Y4.0685
G1 X0.3348 Y4.0878
G1 Y4.0879
G1 X0.348 Y4.1016
G1 X0.3481
G1 X0.3647 Y4.1088
G1 X0.3761 Y4.1112
G1 F5.0 X0.3767 Y4.1073
G1 F10.0 X0.3812 Y4.1079
G1 X0.4118 Y4.1095
G1 X0.4346 Y4.1086
G1 X0.4577 Y4.105
G1 X0.4731 Y4.0983
G1 X0.4851 Y4.086
G1 X0.4852 Y4.0859
G1 X0.49 Y4.0687
G1 X0.4852 Y4.0515
G1 Y4.0514
G1 X0.4733 Y4.0391
G1 X0.4732 Y4.039
G1 X0.4578 Y4.0324
G1 X0.4423 Y4.0296
G1 X0.4117 Y4.028
G1 X0.3881 Y4.0289
G1 X0.3642 Y4.0331
G1 X0.3486 Y4.0401
G1 X0.3341 Y4.0614
G1 X0.3335 Y4.0685
G1 X0.3382 Y4.0857
G1 Y4.0858
G1 X0.3502 Y4.0983
G1 X0.3503
G1 X0.3657 Y4.105
G1 X0.3767 Y4.1073
G0 Z0.05
G0 X0.3751 Y4.1151
G1 F5.0 Z-0.025
G1 F10.0 X0.3716 Y4.1143
G1 X0.3477 Y4.1043
G1 X0.3341 Y4.0898
G1 X0.3293 Y4.0689
G1 Y4.0686
G1 X0.3313 Y4.0541
G1 X0.3378 Y4.042
G1 X0.3491 Y4.0321
G1 X0.3635 Y4.0254
G1 X0.3869 Y4.0206
G1 X0.4117 Y4.0194
G1 X0.4118
G1 X0.4391 Y4.021
G1 X0.4647 Y4.0272
G1 X0.479 Y4.0352
G1 X0.4904 Y4.0498
G1 X0.4941 Y4.0686
G1 Y4.0688
G1 X0.492 Y4.0833
G1 X0.4856 Y4.0955
G1 X0.4742 Y4.1054
G1 X0.4599 Y4.112
G1 X0.4366 Y4.1168
G1 X0.4365
G1 X0.4118 Y4.1181
G1 X0.4117
G1 X0.3912 Y4.1173
G1 X0.3911
G1 X0.3751 Y4.1151
G1 F5.0 X0.3743 Y4.119
G1 F10.0 X0.3707 Y4.1182
G1 X0.3455 Y4.1077
G1 X0.3306 Y4.0917
G1 X0.3253 Y4.0688
G1 Y4.0687
G1 X0.3275 Y4.053
G1 X0.3347 Y4.0394
G1 X0.347 Y4.0287
G1 X0.3623 Y4.0216
G1 X0.3865 Y4.0166
G1 X0.4117 Y4.0154
G1 X0.4118
G1 X0.4396 Y4.017
G1 X0.4661 Y4.0234
G1 X0.4814 Y4.032
G1 X0.4941 Y4.0482
G1 X0.4981 Y4.0686
G1 Y4.0688
G1 X0.4959 Y4.0845
G1 X0.4887 Y4.098
G1 X0.4763 Y4.1088
G1 X0.4611 Y4.1158
G1 X0.4369 Y4.1208
G1 X0.4118 Y4.1221
G1 X0.4117
G1 X0.3909 Y4.1213
G1 X0.3743 Y4.119
G1 F5.0 X0.3758 Y4.1132
G1 Z-0.03
G1 F10.0 X0.3805 Y4.1138
G1 X0.4118 Y4.1155
G1 X0.4351 Y4.1146
G1 X0.4473 Y4.1132
G1 X0.4364 Y4.1148
G1 X0.4363
G1 X0.4118 Y4.1161
G1 X0.4117
G1 X0.3913 Y4.1153
G1 X0.3758 Y4.1132
G0 Z0.05
G0 X0.3719 Y4.0251
G0 Z0.0375
G1 F5.0 Z-0.03
G1 F10.0 X0.3871 Y4.0226
G1 X0.4117 Y4.0214
G1 X0.4118
G1 X0.4388 Y4.023
G1 X0.4389
G1 X0.4444 Y4.0238
G1 X0.443 Y4.0236
G1 X0.4117 Y4.022
G1 X0.3876 Y4.023
G1 X0.3719 Y4.0251
G1 F5.0 X0.3723 Y4.0271
G1 F10.0 X0.3632 Y4.0293
G1 X0.3464 Y4.0368
G1 X0.3306 Y4.059
G1 X0.3295 Y4.0685
G1 X0.3348 Y4.0878
G1 Y4.0879
G1 X0.348 Y4.1016
G1 X0.3481
G1 X0.3647 Y4.1088
G1 X0.3807 Y4.1118
G1 X0.4118 Y4.1135
G1 X0.4349 Y4.1126
G1 X0.4587 Y4.1088
G1 X0.4753 Y4.1016
G1 X0.4885 Y4.0882
G1 X0.4886 Y4.088
G1 X0.494 Y4.0687
G1 X0.4887 Y4.0495
G1 X0.4886 Y4.0493
G1 X0.4755 Y4.0358
G1 X0.4753 Y4.0357
G1 X0.4587 Y4.0286
G1 X0.4428 Y4.0256
G1 X0.4427
G1 X0.4117 Y4.024
G1 X0.3877 Y4.025
G1 X0.3723 Y4.0271
G1 F5.0 X0.3731 Y4.031
G1 F10.0 X0.3642 Y4.0331
G1 X0.3486 Y4.0401
G1 X0.3341 Y4.0614
G1 X0.3335 Y4.0685
G1 X0.3382 Y4.0857
G1 Y4.0858
G1 X0.3502 Y4.0983
G1 X0.3503
G1 X0.3657 Y4.105
G1 X0.3812 Y4.1079
G1 X0.4118 Y4.1095
G1 X0.4346 Y4.1086
G1 X0.4577 Y4.105
G1 X0.4731 Y4.0983
G1 X0.4851 Y4.086
G1 X0.4852 Y4.0859
G1 X0.49 Y4.0687
G1 X0.4852 Y4.0515
G1 Y4.0514
G1 X0.4733 Y4.0391
G1 X0.4732 Y4.039
G1 X0.4578 Y4.0324
G1 X0.4423 Y4.0296
G1 X0.4117 Y4.028
G1 X0.3881 Y4.0289
G1 X0.3731 Y4.031
G0 Z0.05
G0 X0.3712 Y4.0232
G0 Z0.0475
G1 F5.0 Z-0.03
G1 F10.0 X0.3869 Y4.0206
G1 X0.4117 Y4.0194
G1 X0.4118
G1 X0.4391 Y4.021
G1 X0.4647 Y4.0272
G1 X0.479 Y4.0352
G1 X0.4904 Y4.0498
G1 X0.4941 Y4.0686
G1 Y4.0688
G1 X0.492 Y4.0833
G1 X0.4856 Y4.0955
G1 X0.4742 Y4.1054
G1 X0.4599 Y4.112
G1 X0.4366 Y4.1168
G1 X0.4365
G1 X0.4118 Y4.1181
G1 X0.4117
G1 X0.3912 Y4.1173
G1 X0.3911
G1 X0.3716 Y4.1143
G1 X0.3477 Y4.1043
G1 X0.3341 Y4.0898
G1 X0.3293 Y4.0689
G1 Y4.0686
G1 X0.3313 Y4.0541
G1 X0.3378 Y4.042
G1 X0.3491 Y4.0321
G1 X0.3635 Y4.0254
G1 X0.3712 Y4.0232
G1 F5.0 X0.3703 Y4.0194
G1 F10.0 X0.3865 Y4.0166
G1 X0.4117 Y4.0154
G1 X0.4118
G1 X0.4396 Y4.017
G1 X0.4661 Y4.0234
G1 X0.4814 Y4.032
G1 X0.4941 Y4.0482
G1 X0.4981 Y4.0686
G1 Y4.0688
G1 X0.4959 Y4.0845
G1 X0.4887 Y4.098
G1 X0.4763 Y4.1088
G1 X0.4611 Y4.1158
G1 X0.4369 Y4.1208
G1 X0.4118 Y4.1221
G1 X0.4117
G1 X0.3909 Y4.1213
G1 X0.3707 Y4.1182
G1 X0.3455 Y4.1077
G1 X0.3306 Y4.0917
G1 X0.3253 Y4.0688
G1 Y4.0687
G1 X0.3275 Y4.053
G1 X0.3347 Y4.0394
G1 X0.347 Y4.0287
G1 X0.3623 Y4.0216
G1 X0.3703 Y4.0194
G0 Z0.05
G0 Y3.9468
G1 F5.0 Z-0.015
G1 F10.0 X0.437
G1 X0.442 Y3.9418
G1 Y3.8857
G1 X0.4342 Y3.8816
G1 X0.3535 Y3.9377
G1 X0.3563 Y3.9468
G1 X0.3703
G0 Z0.05
G0 X0.3431 Y3.9487
G1 F5.0 Z-0.015
G1 F10.0 X0.3429
G1 X0.343
G1 X0.3431
G1 F5.0 Y3.9507
G1 F10.0 X0.3366
G1 X0.3439 Y3.9456
G1 X0.3469 Y3.9507
G1 X0.3431
G0 Z0.05
G0 X0.444 Y3.9528
G1 F5.0 Z-0.015
G1 F10.0 X0.4471 Y3.95
G1 X0.4502 Y3.9528
G1 X0.4471 Y3.9555
G1 X0.444 Y3.9528
G1 F5.0 X0.4418 Y3.9494
G1 F10.0 X0.446 Y3.9418
G1 Y3.8857
G1 X0.434 Y3.8773
G1 X0.4399 Y3.8731
G1 X0.4482
G1 Y3.9418
G1 X0.4572 Y3.9508
G1 X0.491
G1 Y3.9547
G1 X0.4572
G1 X0.4482 Y3.9637
G1 Y3.9789
G1 X0.446
G1 Y3.9637
G1 X0.437 Y3.9547
G1 X0.33
G1 Y3.9505
G1 X0.3484 Y3.9376
G1 X0.3563 Y3.9508
G1 X0.437
G1 X0.4418 Y3.9494
G0 Z0.05
G0 X0.4386 Y3.959
G1 F5.0 Z-0.015
G1 F10.0 X0.437 Y3.9587
G1 X0.326
G1 Y3.9484
G1 X0.4386 Y3.8691
G1 X0.4522
G1 Y3.9418
G1 X0.4572 Y3.9468
G1 X0.495
G1 Y3.9587
G1 X0.4572
G1 X0.4522 Y3.9637
G1 Y3.9829
G1 X0.442
G1 Y3.9637
G1 X0.4386 Y3.959
G0 Z0.05
G0 X0.444 Y3.9528
G0 Z0.0475
G1 F5.0 Z-0.025
G1 F10.0 X0.4471 Y3.95
G1 X0.4502 Y3.9528
G1 X0.4471 Y3.9555
G1 X0.444 Y3.9528
G0 Z0.05
G0 X0.3431 Y3.9487
G0 Z0.0475
G1 F5.0 Z-0.025
G1 F10.0 X0.3429
G1 X0.343
G1 X0.3431
G1 F5.0 Y3.9507
G1 F10.0 X0.3366
G1 X0.3439 Y3.9456
G1 X0.3469 Y3.9507
G1 X0.3431
G1 F5.0 Y3.9547
G1 F10.0 X0.33
G1 Y3.9505
G1 X0.3484 Y3.9376
G1 X0.3563 Y3.9508
G1 X0.437
G1 X0.446 Y3.9418
G1 Y3.8857
G1 X0.434 Y3.8773
G1 X0.4399 Y3.8731
G1 X0.4482
G1 Y3.9418
G1 X0.4572 Y3.9508
G1 X0.491
G1 Y3.9547
G1 X0.4572
G1 X0.4482 Y3.9637
G1 Y3.9789
G1 X0.446
G1 Y3.9637
G1 X0.437 Y3.9547
G1 X0.3431
G1 F5.0 Y3.9587
G1 F10.0 X0.326
G1 Y3.9484
G1 X0.4386 Y3.8691
G1 X0.4522
G1 Y3.9418
G1 X0.4572 Y3.9468
G1 X0.495
G1 Y3.9587
G1 X0.4572
G1 X0.4522 Y3.9637
G1 Y3.9829
G1 X0.442
G1 Y3.9637
G1 X0.437 Y3.9587
G1 X0.3431
G0 Z0.05
G0 Y3.9487
G0 Z0.0375
G1 F5.0 Z-0.03
G1 F10.0 X0.3429
G1 X0.343
G1 X0.3431
G1 F5.0 Y3.9507
G1 F10.0 X0.3366
G1 X0.3439 Y3.9456
G1 X0.3469 Y3.9507
G1 X0.3431
G0 Z0.05
G0 X0.444 Y3.9528
G0 Z0.0375
G1 F5.0 Z-0.03
G1 F10.0 X0.4471 Y3.95
G1 X0.4502 Y3.9528
G1 X0.4471 Y3.9555
G1 X0.444 Y3.9528
G0 Z0.05
G0 X0.4397 Y3.9595
G0 Z0.0475
G1 F5.0 Z-0.03
G1 F10.0 X0.437 Y3.9587
G1 X0.326
G1 Y3.9484
G1 X0.4386 Y3.8691
G1 X0.4522
G1 Y3.9418
G1 X0.4572 Y3.9468
G1 X0.495
G1 Y3.9587
G1 X0.4572
G1 X0.4522 Y3.9637
G1 Y3.9829
G1 X0.442
G1 Y3.9637
G1 X0.4397 Y3.9595
G0 Z0.05
G0 X0.4378 Y3.9467
G1 F5.0 Z-0.025
G1 F10.0 X0.442 Y3.9418
G1 Y3.8857
G1 X0.4342 Y3.8816
G1 X0.3535 Y3.9377
G1 X0.3563 Y3.9468
G1 X0.437
G1 X0.4378 Y3.9467
G1 F5.0 Z-0.03
G1 F10.0 X0.442 Y3.9418
G1 Y3.8857
G1 X0.4342 Y3.8816
G1 X0.3535 Y3.9377
G1 X0.3563 Y3.9468
G1 X0.437
G1 X0.4378 Y3.9467
G0 Z0.05
G0 X0.4181 Y3.116
G1 F5.0 Z-0.015
G1 F10.0 X0.4118 Y3.1161
G1 X0.4117
G1 X0.3913 Y3.1153
G1 X0.3758 Y3.1132
G1 X0.3805 Y3.1138
G1 X0.4118 Y3.1155
G1 X0.4351 Y3.1146
G1 X0.4473 Y3.1132
G1 X0.4364 Y3.1148
G1 X0.4363
G1 X0.4181 Y3.116
G0 Z0.05
G0 X0.4206 Y3.0221
G1 F5.0 Z-0.015
G1 F10.0 X0.4117 Y3.022
G1 X0.3876 Y3.023
G1 X0.3719 Y3.0251
G1 X0.3871 Y3.0226
G1 X0.4117 Y3.0214
G1 X0.4118
G1 X0.4388 Y3.023
G1 X0.4389
G1 X0.4444 Y3.0238
G1 X0.443 Y3.0236
G1 X0.4206 Y3.0221
G1 F5.0 Y3.0241
G1 F10.0 X0.4117 Y3.024
G1 X0.3877 Y3.025
G1 X0.3632 Y3.0293
G1 X0.3464 Y3.0368
G1 X0.3306 Y3.059
G1 X0.3295 Y3.0685
G1 X0.3348 Y3.0878
G1 Y3.0879
G1 X0.348 Y3.1016
G1 X0.3481
G1 X0.3647 Y3.1088
G1 X0.3807 Y3.1118
G1 X0.4118 Y3.1135
G1 X0.4349 Y3.1126
G1 X0.4587 Y3.1088
G1 X0.4753 Y3.1016
G1 X0.4885 Y3.0882
G1 X0.4886 Y3.088
G1 X0.494 Y3.0687
G1 X0.4887 Y3.0495
G1 X0.4886 Y3.0493
G1 X0.4755 Y3.0358
G1 X0.4753 Y3.0357
G1 X0.4587 Y3.0286
G1 X0.4428 Y3.0256
G1 X0.4427
G1 X0.4206 Y3.0241
G1 F5.0 X0.4205 Y3.028
G1 F10.0 X0.4117
G1 X0.3881 Y3.0289
G1 X0.3642 Y3.0331
G1 X0.3486 Y3.0401
G1 X0.3341 Y3.0614
G1 X0.3335 Y3.0685
G1 X0.3382 Y3.0857
G1 Y3.0858
G1 X0.3502 Y3.0983
G1 X0.3503
G1 X0.3657 Y3.105
G1 X0.3812 Y3.1079
G1 X0.4118 Y3.1095
G1 X0.4346 Y3.1086
G1 X0.4577 Y3.105
G1 X0.4731 Y3.0983
G1 X0.4851 Y3.086
G1 X0.4852 Y3.0859
G1 X0.49 Y3.0687
G1 X0.4852 Y3.0515
G1 Y3.0514
G1 X0.4733 Y3.0391
G1 X0.4732 Y3.039
G1 X0.4578 Y3.0324
G1 X0.4423 Y3.0296
G1 X0.4205 Y3.028
G0 Z0.05
G0 X0.4208 Y3.0195
G1 F5.0 Z-0.015
G1 F10.0 X0.4391 Y3.021
G1 X0.4647 Y3.0272
G1 X0.479 Y3.0352
G1 X0.4904 Y3.0498
G1 X0.4941 Y3.0686
G1 Y3.0688
G1 X0.492 Y3.0833
G1 X0.4856 Y3.0955
G1 X0.4742 Y3.1054
G1 X0.4599 Y3.112
G1 X0.4366 Y3.1168
G1 X0.4365
G1 X0.4118 Y3.1181
G1 X0.4117
G1 X0.3912 Y3.1173
G1 X0.3911
G1 X0.3716 Y3.1143
G1 X0.3477 Y3.1043
G1 X0.3341 Y3.0898
G1 X0.3293 Y3.0689
G1 Y3.0686
G1 X0.3313 Y3.0541
G1 X0.3378 Y3.042
G1 X0.3491 Y3.0321
G1 X0.3635 Y3.0254
G1 X0.3869 Y3.0206
G1 X0.4117 Y3.0194
G1 X0.4118
G1 X0.4208 Y3.0195
G1 F5.0 X0.4209 Y3.0155
G1 F10.0 X0.4396 Y3.017
G1 X0.4661 Y3.0234
G1 X0.4814 Y3.032
G1 X0.4941 Y3.0482
G1 X0.4981 Y3.0686
G1 Y3.0688
G1 X0.4959 Y3.0845
G1 X0.4887 Y3.098
G1 X0.4763 Y3.1088
G1 X0.4611 Y3.1158
G1 X0.4369 Y3.1208
G1 X0.4118 Y3.1221
G1 X0.4117
G1 X0.3909 Y3.1213
G1 X0.3707 Y3.1182
G1 X0.3455 Y3.1077
G1 X0.3306 Y3.0917
G1 X0.3253 Y3.0688
G1 Y3.0687
G1 X0.3275 Y3.053
G1 X0.3347 Y3.0394
G1 X0.347 Y3.0287
G1 X0.3623 Y3.0216
G1 X0.3865 Y3.0166
G1 X0.4117 Y3.0154
G1 X0.4118
G1 X0.4209 Y3.0155
G1 F5.0 X0.4207 Y3.0215
G1 Z-0.025
G1 F10.0 X0.4388 Y3.023
G1 X0.4389
G1 X0.4444 Y3.0238
G1 X0.443 Y3.0236
G1 X0.4117 Y3.022
G1 X0.3876 Y3.023
G1 X0.3719 Y3.0251
G1 X0.3871 Y3.0226
G1 X0.4117 Y3.0214
G1 X0.4118
G1 X0.4207 Y3.0215
G0 Z0.05
G0 X0.4245 Y3.1152
G1 F5.0 Z-0.025
G1 F10.0 X0.4351 Y3.1146
G1 X0.4473 Y3.1132
G1 X0.4364 Y3.1148
G1 X0.4363
G1 X0.4118 Y3.1161
G1 X0.4117
G1 X0.3913 Y3.1153
G1 X0.3758 Y3.1132
G1 X0.3805 Y3.1138
G1 X0.4118 Y3.1155
G1 X0.4245 Y3.1152
G1 F5.0 Y3.1132
G1 F10.0 X0.4349 Y3.1126
G1 X0.4587 Y3.1088
G1 X0.4753 Y3.1016
G1 X0.4885 Y3.0882
G1 X0.4886 Y3.088
G1 X0.494 Y3.0687
G1 X0.4887 Y3.0495
G1 X0.4886 Y3.0493
G1 X0.4755 Y3.0358
G1 X0.4753 Y3.0357
G1 X0.4587 Y3.0286
G1 X0.4428 Y3.0256
G1 X0.4427
G1 X0.4117 Y3.024
G1 X0.3877 Y3.025
G1 X0.3632 Y3.0293
G1 X0.3464 Y3.0368
G1 X0.3306 Y3.059
G1 X0.3295 Y3.0685
G1 X0.3348 Y3.0878
G1 Y3.0879
G1 X0.348 Y3.1016
G1 X0.3481
G1 X0.3647 Y3.1088
G1 X0.3807 Y3.1118
G1 X0.4118 Y3.1135
G1 X0.4245 Y3.1132
G1 F5.0 X0.4243 Y3.1093
G1 F10.0 X0.4346 Y3.1086
G1 X0.4577 Y3.105
G1 X0.4731 Y3.0983
G1 X0.4851 Y3.086
G1 X0.4852 Y3.0859
G1 X0.49 Y3.0687
G1 X0.4852 Y3.0515
G1 Y3.0514
G1 X0.4733 Y3.0391
G1 X0.4732 Y3.039
G1 X0.4578 Y3.0324
G1 X0.4423 Y3.0296
G1 X0.4117 Y3.028
G1 X0.3881 Y3.0289
G1 X0.3642 Y3.0331
G1 X0.3486 Y3.0401
G1 X0.3341 Y3.0614
G1 X0.3335 Y3.0685
G1 X0.3382 Y3.0857
G1 Y3.0858
G1 X0.3502 Y3.0983
G1 X0.3503
G1 X0.3657 Y3.105
G1 X0.3812 Y3.1079
G1 X0.4118 Y3.1095
G1 X0.4243 Y3.1093
G0 Z0.05
G0 X0.4247 Y3.1178
G1 F5.0 Z-0.025
G1 F10.0 X0.4118 Y3.1181
G1 X0.4117
G1 X0.3912 Y3.1173
G1 X0.3911
G1 X0.3716 Y3.1143
G1 X0.3477 Y3.1043
G1 X0.3341 Y3.0898
G1 X0.3293 Y3.0689
G1 Y3.0686
G1 X0.3313 Y3.0541
G1 X0.3378 Y3.042
G1 X0.3491 Y3.0321
G1 X0.3635 Y3.0254
G1 X0.3869 Y3.0206
G1 X0.4117 Y3.0194
G1 X0.4118
G1 X0.4391 Y3.021
G1 X0.4647 Y3.0272
G1 X0.479 Y3.0352
G1 X0.4904 Y3.0498
G1 X0.4941 Y3.0686
G1 Y3.0688
G1 X0.492 Y3.0833
G1 X0.4856 Y3.0955
G1 X0.4742 Y3.1054
G1 X0.4599 Y3.112
G1 X0.4366 Y3.1168
G1 X0.4365
G1 X0.4247 Y3.1178
G1 F5.0 X0.4249 Y3.1218
G1 F10.0 X0.4118 Y3.1221
G1 X0.4117
G1 X0.3909 Y3.1213
G1 X0.3707 Y3.1182
G1 X0.3455 Y3.1077
G1 X0.3306 Y3.0917
G1 X0.3253 Y3.0688
G1 Y3.0687
G1 X0.3275 Y3.053
G1 X0.3347 Y3.0394
G1 X0.347 Y3.0287
G1 X0.3623 Y3.0216
G1 X0.3865 Y3.0166
G1 X0.4117 Y3.0154
G1 X0.4118
G1 X0.4396 Y3.017
G1 X0.4661 Y3.0234
G1 X0.4814 Y3.032
G1 X0.4941 Y3.0482
G1 X0.4981 Y3.0686
G1 Y3.0688
G1 X0.4959 Y3.0845
G1 X0.4887 Y3.098
G1 X0.4763 Y3.1088
G1 X0.4611 Y3.1158
G1 X0.4369 Y3.1208
G1 X0.4249 Y3.1218
G1 F5.0 X0.4246 Y3.1158
G1 Z-0.03
G1 F10.0 X0.4118 Y3.1161
G1 X0.4117
G1 X0.3913 Y3.1153
G1 X0.3758 Y3.1132
G1 X0.3805 Y3.1138
G1 X0.4118 Y3.1155
G1 X0.4351 Y3.1146
G1 X0.4473 Y3.1132
G1 X0.4364 Y3.1148
G1 X0.4363
G1 X0.4246 Y3.1158
G0 Z0.05
G0 X0.4307 Y3.0225
G0 Z0.0475
G1 F5.0 Z-0.03
G1 F10.0 X0.4117 Y3.022
G1 X0.3876 Y3.023
G1 X0.3719 Y3.0251
G1 X0.3871 Y3.0226
G1 X0.4117 Y3.0214
G1 X0.4118
G1 X0.4388 Y3.023
G1 X0.4389
G1 X0.4444 Y3.0238
G1 X0.443 Y3.0236
G1 X0.4307 Y3.0225
G1 F5.0 X0.4306 Y3.0245
G1 F10.0 X0.4117 Y3.024
G1 X0.3877 Y3.025
G1 X0.3632 Y3.0293
G1 X0.3464 Y3.0368
G1 X0.3306 Y3.059
G1 X0.3295 Y3.0685
G1 X0.3348 Y3.0878
G1 Y3.0879
G1 X0.348 Y3.1016
G1 X0.3481
G1 X0.3647 Y3.1088
G1 X0.3807 Y3.1118
G1 X0.4118 Y3.1135
G1 X0.4349 Y3.1126
G1 X0.4587 Y3.1088
G1 X0.4753 Y3.1016
G1 X0.4885 Y3.0882
G1 X0.4886 Y3.088
G1 X0.494 Y3.0687
G1 X0.4887 Y3.0495
G1 X0.4886 Y3.0493
G1 X0.4755 Y3.0358
G1 X0.4753 Y3.0357
G1 X0.4587 Y3.0286
G1 X0.4428 Y3.0256
G1 X0.4427
G1 X0.4306 Y3.0245
G1 F5.0 X0.4303 Y3.0285
G1 F10.0 X0.4117 Y3.028
G1 X0.3881 Y3.0289
G1 X0.3642 Y3.0331
G1 X0.3486 Y3.0401
G1 X0.3341 Y3.0614
G1 X0.3335 Y3.0685
G1 X0.3382 Y3.0857
G1 Y3.0858
G1 X0.3502 Y3.0983
G1 X0.3503
G1 X0.3657 Y3.105
G1 X0.3812 Y3.1079
G1 X0.4118 Y3.1095
G1 X0.4346 Y3.1086
G1 X0.4577 Y3.105
G1 X0.4731 Y3.0983
G1 X0.4851 Y3.086
G1 X0.4852 Y3.0859
G1 X0.49 Y3.0687
G1 X0.4852 Y3.0515
G1 Y3.0514
G1 X0.4733 Y3.0391
G1 X0.4732 Y3.039
G1 X0.4578 Y3.0324
G1 X0.4423 Y3.0296
G1 X0.4303 Y3.0285
G0 Z0.05
G0 X0.4311 Y3.0202
G0 Z0.0475
G1 F5.0 Z-0.03
G1 F10.0 X0.4391 Y3.021
G1 X0.4647 Y3.0272
G1 X0.479 Y3.0352
G1 X0.4904 Y3.0498
G1 X0.4941 Y3.0686
G1 Y3.0688
G1 X0.492 Y3.0833
G1 X0.4856 Y3.0955
G1 X0.4742 Y3.1054
G1 X0.4599 Y3.112
G1 X0.4366 Y3.1168
G1 X0.4365
G1 X0.4118 Y3.1181
G1 X0.4117
G1 X0.3912 Y3.1173
G1 X0.3911
G1 X0.3716 Y3.1143
G1 X0.3477 Y3.1043
G1 X0.3341 Y3.0898
G1 X0.3293 Y3.0689
G1 Y3.0686
G1 X0.3313 Y3.0541
G1 X0.3378 Y3.042
G1 X0.3491 Y3.0321
G1 X0.3635 Y3.0254
G1 X0.3869 Y3.0206
G1 X0.4117 Y3.0194
G1 X0.4118
G1 X0.4311 Y3.0202
G1 F5.0 X0.4314 Y3.0162
G1 F10.0 X0.4396 Y3.017
G1 X0.4661 Y3.0234
G1 X0.4814 Y3.032
G1 X0.4941 Y3.0482
G1 X0.4981 Y3.0686
G1 Y3.0688
G1 X0.4959 Y3.0845
G1 X0.4887 Y3.098
G1 X0.4763 Y3.1088
G1 X0.4611 Y3.1158
G1 X0.4369 Y3.1208
G1 X0.4118 Y3.1221
G1 X0.4117
G1 X0.3909 Y3.1213
G1 X0.3707 Y3.1182
G1 X0.3455 Y3.1077
G1 X0.3306 Y3.0917
G1 X0.3253 Y3.0688
G1 Y3.0687
G1 X0.3275 Y3.053
G1 X0.3347 Y3.0394
G1 X0.347 Y3.0287
G1 X0.3623 Y3.0216
G1 X0.3865 Y3.0166
G1 X0.4117 Y3.0154
G1 X0.4118
G1 X0.4314 Y3.0162
G0 Z0.05
G0 X0.4386 Y2.9769
G1 F5.0 Z-0.015
G1 F10.0 X0.435 Y2.9761
G1 X0.425 Y2.9711
G1 X0.4238 Y2.9701
G1 X0.4302 Y2.9732
G1 X0.4303 Y2.9733
G1 X0.4476 Y2.9763
G1 X0.4721 Y2.97
G1 X0.4473 Y2.9776
G1 X0.447
G1 X0.4386 Y2.9769
G0 Z0.05
G0 X0.4037 Y2.9442
G1 F5.0 Z-0.015
G1 F10.0 X0.4024
G1 X0.4032 Y2.9424
G1 X0.4037 Y2.9442
G1 F5.0 X0.4036 Y2.9462
G1 F10.0 X0.3986 Y2.9474
G1 X0.4039 Y2.9335
G1 X0.4067 Y2.947
G1 X0.4036 Y2.9462
G0 Z0.05
G0 X0.3767 Y2.9671
G1 F5.0 Z-0.015
G1 F10.0 X0.3669 Y2.9689
G1 X0.3668
G1 X0.3565 Y2.9672
G1 X0.3664 Y2.9683
G1 X0.3767 Y2.9671
G1 F5.0 X0.3774 Y2.969
G1 F10.0 X0.3669 Y2.9709
G1 X0.3668
G1 X0.3485 Y2.9656
G1 X0.3484
G1 X0.3348 Y2.9506
G1 X0.3347 Y2.9504
G1 X0.3296 Y2.9332
G1 X0.3295 Y2.9322
G1 X0.3293 Y2.9276
G1 Y2.9274
G1 X0.3317 Y2.9114
G1 X0.3394 Y2.8978
G1 X0.352 Y2.8878
G1 X0.3595 Y2.8847
G1 X0.3602 Y2.8887
G1 X0.3542 Y2.8908
G1 X0.34 Y2.9004
G1 X0.3399 Y2.9005
G1 X0.3294 Y2.9263
G1 Y2.9279
G1 X0.3295 Y2.9322
G1 X0.3296 Y2.9332
G1 X0.3398 Y2.9553
G1 X0.3642 Y2.9663
G1 X0.3664
G1 X0.3828 Y2.9629
G1 X0.383 Y2.9628
G1 X0.3927 Y2.9558
G1 X0.3829 Y2.9662
G1 X0.3774 Y2.969
G0 Z0.05
G0 X0.462 Y2.8852
G1 F5.0 Z-0.015
G1 F10.0 X0.4621 Y2.8844
G1 X0.4736 Y2.8901
G1 X0.4685 Y2.8876
G1 X0.462 Y2.8852
G1 F5.0 X0.4614 Y2.8871
G1 F10.0 X0.4598 Y2.8866
G1 X0.4605 Y2.8818
G1 X0.4825 Y2.8952
G1 X0.4914 Y2.9103
G1 X0.4942 Y2.9282
G1 Y2.9284
G1 X0.4909 Y2.9485
G1 X0.4804 Y2.9653
G1 X0.4803 Y2.9655
G1 X0.454 Y2.9792
G1 X0.4473 Y2.9796
G1 X0.4471
G1 X0.4344 Y2.978
G1 X0.4238 Y2.9727
G1 X0.4162 Y2.9643
G1 X0.4135 Y2.9586
G1 X0.4163 Y2.9618
G1 X0.4309 Y2.9714
G1 X0.431
G1 X0.4476 Y2.9743
G1 X0.4761 Y2.9649
G1 X0.4806 Y2.961
G1 X0.4937 Y2.9343
G1 X0.494 Y2.9285
G1 X0.4845 Y2.9014
G1 X0.4835 Y2.9003
G1 X0.4833 Y2.9
G1 X0.4677 Y2.8895
G1 X0.4614 Y2.8871
G1 F5.0 X0.4602 Y2.8909
G1 F10.0 X0.4554 Y2.8896
G1 X0.4571 Y2.877
G1 X0.4848 Y2.8918
G1 X0.4854 Y2.8925
G1 X0.4952 Y2.909
G1 X0.4982 Y2.9283
G1 Y2.9284
G1 X0.4946 Y2.9499
G1 X0.4833 Y2.9681
G1 Y2.9682
G1 X0.456 Y2.983
G1 X0.4472 Y2.9836
G1 X0.4471
G1 X0.4333 Y2.9818
G1 X0.4214 Y2.9759
G1 X0.4213
G1 X0.4128 Y2.9663
G1 X0.408 Y2.9541
G1 X0.3985 Y2.9532
G1 X0.3852 Y2.9695
G1 X0.3669 Y2.9749
G1 X0.3668
G1 X0.3464 Y2.969
G1 X0.3463
G1 X0.3312 Y2.9523
G1 X0.3311 Y2.9522
G1 X0.3253 Y2.9275
G1 Y2.9274
G1 X0.3279 Y2.9101
G1 X0.3363 Y2.8952
G1 X0.3502 Y2.8843
G1 X0.3627 Y2.8796
G1 X0.3648 Y2.8916
G1 X0.3557 Y2.8945
G1 X0.3428 Y2.9031
G1 Y2.9032
G1 X0.3334 Y2.9279
G1 Y2.928
G1 X0.3426 Y2.9524
G1 X0.3427 Y2.9525
G1 Y2.9526
G1 X0.366 Y2.9623
G1 X0.3664
G1 X0.3812 Y2.9593
G1 X0.3813 Y2.9592
G1 X0.3931 Y2.9487
G1 X0.4012 Y2.9216
G1 X0.4088 Y2.9207
G1 X0.4078 Y2.9301
G1 X0.417 Y2.9566
G1 X0.4192 Y2.959
G1 X0.4323 Y2.9676
G1 X0.4324 Y2.9677
G1 X0.4476 Y2.9703
G1 X0.4747 Y2.9609
G1 X0.4778 Y2.9581
G1 X0.4899 Y2.9325
G1 X0.49 Y2.9285
G1 X0.4805 Y2.9029
G1 X0.4804 Y2.9028
G1 X0.4662 Y2.8932
G1 X0.4602 Y2.8909
G1 F5.0 X0.462 Y2.8852
G1 Z-0.025
G1 F10.0 X0.4621 Y2.8844
G1 X0.4736 Y2.8901
G1 X0.4685 Y2.8876
G1 X0.462 Y2.8852
G0 Z0.05
G0 X0.4032 Y2.9424
G0 Z0.0475
G1 F5.0 Z-0.025
G1 F10.0 X0.4037 Y2.9442
G1 X0.4024
G1 X0.4032 Y2.9424
G1 F5.0 X0.4013 Y2.9416
G1 F10.0 X0.4039 Y2.9335
G1 X0.4067 Y2.947
G1 X0.3986 Y2.9474
G1 X0.4013 Y2.9416
G0 Z0.05
G0 X0.3767 Y2.9671
G0 Z0.0475
G1 F5.0 Z-0.025
G1 F10.0 X0.3669 Y2.9689
G1 X0.3668
G1 X0.3565 Y2.9672
G1 X0.3664 Y2.9683
G1 X0.3767 Y2.9671
G1 F5.0 X0.3774 Y2.969
G1 F10.0 X0.3669 Y2.9709
G1 X0.3668
G1 X0.3485 Y2.9656
G1 X0.3484
G1 X0.3348 Y2.9506
G1 X0.3347 Y2.9504
G1 X0.3296 Y2.9332
G1 X0.3295 Y2.9322
G1 X0.3293 Y2.9276
G1 Y2.9274
G1 X0.3317 Y2.9114
G1 X0.3394 Y2.8978
G1 X0.352 Y2.8878
G1 X0.3595 Y2.8847
G1 X0.3602 Y2.8887
G1 X0.3542 Y2.8908
G1 X0.34 Y2.9004
G1 X0.3399 Y2.9005
G1 X0.3294 Y2.9263
G1 Y2.9279
G1 X0.3295 Y2.9322
G1 X0.3296 Y2.9332
G1 X0.3398 Y2.9553
G1 X0.3642 Y2.9663
G1 X0.3664
G1 X0.3828 Y2.9629
G1 X0.383 Y2.9628
G1 X0.3927 Y2.9558
G1 X0.3829 Y2.9662
G1 X0.3774 Y2.969
G0 Z0.05
G0 X0.4238 Y2.9701
G0 Z0.0475
G1 F5.0 Z-0.025
G1 F10.0 X0.4302 Y2.9732
G1 X0.4303 Y2.9733
G1 X0.4476 Y2.9763
G1 X0.4721 Y2.97
G1 X0.4473 Y2.9776
G1 X0.447
G1 X0.435 Y2.9761
G1 X0.425 Y2.9711
G1 X0.4238 Y2.9701
G1 F5.0 X0.4248 Y2.9684
G1 F10.0 X0.4309 Y2.9714
G1 X0.431
G1 X0.4476 Y2.9743
G1 X0.4761 Y2.9649
G1 X0.4806 Y2.961
G1 X0.4937 Y2.9343
G1 X0.494 Y2.9285
G1 X0.4845 Y2.9014
G1 X0.4835 Y2.9003
G1 X0.4833 Y2.9
G1 X0.4677 Y2.8895
G1 X0.4598 Y2.8866
G1 X0.4605 Y2.8818
G1 X0.4825 Y2.8952
G1 X0.4914 Y2.9103
G1 X0.4942 Y2.9282
G1 Y2.9284
G1 X0.4909 Y2.9485
G1 X0.4804 Y2.9653
G1 X0.4803 Y2.9655
G1 X0.454 Y2.9792
G1 X0.4473 Y2.9796
G1 X0.4471
G1 X0.4344 Y2.978
G1 X0.4238 Y2.9727
G1 X0.4162 Y2.9643
G1 X0.4135 Y2.9586
G1 X0.4163 Y2.9618
G1 X0.4248 Y2.9684
G1 F5.0 X0.4268 Y2.965
G1 F10.0 X0.4323 Y2.9676
G1 X0.4324 Y2.9677
G1 X0.4476 Y2.9703
G1 X0.4747 Y2.9609
G1 X0.4778 Y2.9581
G1 X0.4899 Y2.9325
G1 X0.49 Y2.9285
G1 X0.4805 Y2.9029
G1 X0.4804 Y2.9028
G1 X0.4662 Y2.8932
G1 X0.4554 Y2.8896
G1 X0.4571 Y2.877
G1 X0.4848 Y2.8918
G1 X0.4854 Y2.8925
G1 X0.4952 Y2.909
G1 X0.4982 Y2.9283
G1 Y2.9284
G1 X0.4946 Y2.9499
G1 X0.4833 Y2.9681
G1 Y2.9682
G1 X0.456 Y2.983
G1 X0.4472 Y2.9836
G1 X0.4471
G1 X0.4333 Y2.9818
G1 X0.4214 Y2.9759
G1 X0.4213
G1 X0.4128 Y2.9663
G1 X0.408 Y2.9541
G1 X0.3985 Y2.9532
G1 X0.3852 Y2.9695
G1 X0.3669 Y2.9749
G1 X0.3668
G1 X0.3464 Y2.969
G1 X0.3463
G1 X0.3312 Y2.9523
G1 X0.3311 Y2.9522
G1 X0.3253 Y2.9275
G1 Y2.9274
G1 X0.3279 Y2.9101
G1 X0.3363 Y2.8952
G1 X0.3502 Y2.8843
G1 X0.3627 Y2.8796
G1 X0.3648 Y2.8916
G1 X0.3557 Y2.8945
G1 X0.3428 Y2.9031
G1 Y2.9032
G1 X0.3334 Y2.9279
G1 Y2.928
G1 X0.3426 Y2.9524
G1 X0.3427 Y2.9525
G1 Y2.9526
G1 X0.366 Y2.9623
G1 X0.3664
G1 X0.3812 Y2.9593
G1 X0.3813 Y2.9592
G1 X0.3931 Y2.9487
G1 X0.4012 Y2.9216
G1 X0.4088 Y2.9207
G1 X0.4078 Y2.9301
G1 X0.417 Y2.9566
G1 X0.4192 Y2.959
G1 X0.4268 Y2.965
G1 F5.0 X0.4238 Y2.9701
G1 Z-0.03
G1 F10.0 X0.4302 Y2.9732
G1 X0.4303 Y2.9733
G1 X0.4476 Y2.9763
G1 X0.4721 Y2.97
G1 X0.4473 Y2.9776
G1 X0.447
G1 X0.435 Y2.9761
G1 X0.425 Y2.9711
G1 X0.4238 Y2.9701
G0 Z0.05
G0 X0.4037 Y2.9442
G0 Z0.0375
G1 F5.0 Z-0.03
G1 F10.0 X0.4024
G1 X0.4032 Y2.9424
G1 X0.4037 Y2.9442
G1 F5.0 X0.4036 Y2.9462
G1 F10.0 X0.3986 Y2.9474
G1 X0.4039 Y2.9335
G1 X0.4067 Y2.947
G1 X0.4036 Y2.9462
G0 Z0.05
G0 X0.3767 Y2.9671
G0 Z0.0375
G1 F5.0 Z-0.03
G1 F10.0 X0.3669 Y2.9689
G1 X0.3668
G1 X0.3565 Y2.9672
G1 X0.3664 Y2.9683
G1 X0.3767 Y2.9671
G1 F5.0 X0.3774 Y2.969
G1 F10.0 X0.3669 Y2.9709
G1 X0.3668
G1 X0.3485 Y2.9656
G1 X0.3484
G1 X0.3348 Y2.9506
G1 X0.3347 Y2.9504
G1 X0.3296 Y2.9332
G1 X0.3295 Y2.9322
G1 X0.3293 Y2.9276
G1 Y2.9274
G1 X0.3317 Y2.9114
G1 X0.3394 Y2.8978
G1 X0.352 Y2.8878
G1 X0.3595 Y2.8847
G1 X0.3602 Y2.8887
G1 X0.3542 Y2.8908
G1 X0.34 Y2.9004
G1 X0.3399 Y2.9005
G1 X0.3294 Y2.9263
G1 Y2.9279
G1 X0.3295 Y2.9322
G1 X0.3296 Y2.9332
G1 X0.3398 Y2.9553
G1 X0.3642 Y2.9663
G1 X0.3664
G1 X0.3828 Y2.9629
G1 X0.383 Y2.9628
G1 X0.3927 Y2.9558
G1 X0.3829 Y2.9662
G1 X0.3774 Y2.969
G0 Z0.05
G0 X0.462 Y2.8852
G0 Z0.0375
G1 F5.0 Z-0.03
G1 F10.0 X0.4621 Y2.8844
G1 X0.4736 Y2.8901
G1 X0.4685 Y2.8876
G1 X0.462 Y2.8852
G1 F5.0 X0.4614 Y2.8871
G1 F10.0 X0.4598 Y2.8866
G1 X0.4605 Y2.8818
G1 X0.4825 Y2.8952
G1 X0.4914 Y2.9103
G1 X0.4942 Y2.9282
G1 Y2.9284
G1 X0.4909 Y2.9485
G1 X0.4804 Y2.9653
G1 X0.4803 Y2.9655
G1 X0.454 Y2.9792
G1 X0.4473 Y2.9796
G1 X0.4471
G1 X0.4344 Y2.978
G1 X0.4238 Y2.9727
G1 X0.4162 Y2.9643
G1 X0.4135 Y2.9586
G1 X0.4163 Y2.9618
G1 X0.4309 Y2.9714
G1 X0.431
G1 X0.4476 Y2.9743
G1 X0.4761 Y2.9649
G1 X0.4806 Y2.961
G1 X0.4937 Y2.9343
G1 X0.494 Y2.9285
G1 X0.4845 Y2.9014
G1 X0.4835 Y2.9003
G1 X0.4833 Y2.9
G1 X0.4677 Y2.8895
G1 X0.4614 Y2.8871
G1 F5.0 X0.4602 Y2.8909
G1 F10.0 X0.4554 Y2.8896
G1 X0.4571 Y2.877
G1 X0.4848 Y2.8918
G1 X0.4854 Y2.8925
G1 X0.4952 Y2.909
G1 X0.4982 Y2.9283
G1 Y2.9284
G1 X0.4946 Y2.9499
G1 X0.4833 Y2.9681
G1 Y2.9682
G1 X0.456 Y2.983
G1 X0.4472 Y2.9836
G1 X0.4471
G1 X0.4333 Y2.9818
G1 X0.4214 Y2.9759
G1 X0.4213
G1 X0.4128 Y2.9663
G1 X0.408 Y2.9541
G1 X0.3985 Y2.9532
G1 X0.3852 Y2.9695
G1 X0.3669 Y2.9749
G1 X0.3668
G1 X0.3464 Y2.969
G1 X0.3463
G1 X0.3312 Y2.9523
G1 X0.3311 Y2.9522
G1 X0.3253 Y2.9275
G1 Y2.9274
G1 X0.3279 Y2.9101
G1 X0.3363 Y2.8952
G1 X0.3502 Y2.8843
G1 X0.3627 Y2.8796
G1 X0.3648 Y2.8916
G1 X0.3557 Y2.8945
G1 X0.3428 Y2.9031
G1 Y2.9032
G1 X0.3334 Y2.9279
G1 Y2.928
G1 X0.3426 Y2.9524
G1 X0.3427 Y2.9525
G1 Y2.9526
G1 X0.366 Y2.9623
G1 X0.3664
G1 X0.3812 Y2.9593
G1 X0.3813 Y2.9592
G1 X0.3931 Y2.9487
G1 X0.4012 Y2.9216
G1 X0.4088 Y2.9207
G1 X0.4078 Y2.9301
G1 X0.417 Y2.9566
G1 X0.4192 Y2.959
G1 X0.4323 Y2.9676
G1 X0.4324 Y2.9677
G1 X0.4476 Y2.9703
G1 X0.4747 Y2.9609
G1 X0.4778 Y2.9581
G1 X0.4899 Y2.9325
G1 X0.49 Y2.9285
G1 X0.4805 Y2.9029
G1 X0.4804 Y2.9028
G1 X0.4662 Y2.8932
G1 X0.4602 Y2.8909
G0 Z0.05
G0 X0.4234 Y2.1158
G1 F5.0 Z-0.015
G1 F10.0 X0.4118 Y2.1161
G1 X0.4117
G1 X0.3913 Y2.1153
G1 X0.3758 Y2.1132
G1 X0.3805 Y2.1138
G1 X0.4118 Y2.1155
G1 X0.4351 Y2.1146
G1 X0.4473 Y2.1132
G1 X0.4364 Y2.1148
G1 X0.4363
G1 X0.4234 Y2.1158
G0 Z0.05
G0 X0.4289 Y2.0224
G1 F5.0 Z-0.015
G1 F10.0 X0.4117 Y2.022
G1 X0.3876 Y2.023
G1 X0.3719 Y2.0251
G1 X0.3871 Y2.0226
G1 X0.4117 Y2.0214
G1 X0.4118
G1 X0.4388 Y2.023
G1 X0.4389
G1 X0.4444 Y2.0238
G1 X0.443 Y2.0236
G1 X0.4289 Y2.0224
G1 F5.0 X0.4288 Y2.0244
G1 F10.0 X0.4117 Y2.024
G1 X0.3877 Y2.025
G1 X0.3632 Y2.0293
G1 X0.3464 Y2.0368
G1 X0.3306 Y2.059
G1 X0.3295 Y2.0685
G1 X0.3348 Y2.0878
G1 Y2.0879
G1 X0.348 Y2.1016
G1 X0.3481
G1 X0.3647 Y2.1088
G1 X0.3807 Y2.1118
G1 X0.4118 Y2.1135
G1 X0.4349 Y2.1126
G1 X0.4587 Y2.1088
G1 X0.4753 Y2.1016
G1 X0.4885 Y2.0882
G1 X0.4886 Y2.088
G1 X0.494 Y2.0687
G1 X0.4887 Y2.0495
G1 X0.4886 Y2.0493
G1 X0.4755 Y2.0358
G1 X0.4753 Y2.0357
G1 X0.4587 Y2.0286
G1 X0.4428 Y2.0256
G1 X0.4427
G1 X0.4288 Y2.0244
G1 F5.0 X0.4285 Y2.0284
G1 F10.0 X0.4117 Y2.028
G1 X0.3881 Y2.0289
G1 X0.3642 Y2.0331
G1 X0.3486 Y2.0401
G1 X0.3341 Y2.0614
G1 X0.3335 Y2.0685
G1 X0.3382 Y2.0857
G1 Y2.0858
G1 X0.3502 Y2.0983
G1 X0.3503
G1 X0.3657 Y2.105
G1 X0.3812 Y2.1079
G1 X0.4118 Y2.1095
G1 X0.4346 Y2.1086
G1 X0.4577 Y2.105
G1 X0.4731 Y2.0983
G1 X0.4851 Y2.086
G1 X0.4852 Y2.0859
G1 X0.49 Y2.0687
G1 X0.4852 Y2.0515
G1 Y2.0514
G1 X0.4733 Y2.0391
G1 X0.4732 Y2.039
G1 X0.4578 Y2.0324
G1 X0.4423 Y2.0296
G1 X0.4285 Y2.0284
G0 Z0.05
G0 X0.4292 Y2.02
G1 F5.0 Z-0.015
G1 F10.0 X0.4391 Y2.021
G1 X0.4647 Y2.0272
G1 X0.479 Y2.0352
G1 X0.4904 Y2.0498
G1 X0.4941 Y2.0686
G1 Y2.0688
G1 X0.492 Y2.0833
G1 X0.4856 Y2.0955
G1 X0.4742 Y2.1054
G1 X0.4599 Y2.112
G1 X0.4366 Y2.1168
G1 X0.4365
G1 X0.4118 Y2.1181
G1 X0.4117
G1 X0.3912 Y2.1173
G1 X0.3911
G1 X0.3716 Y2.1143
G1 X0.3477 Y2.1043
G1 X0.3341 Y2.0898
G1 X0.3293 Y2.0689
G1 Y2.0686
G1 X0.3313 Y2.0541
G1 X0.3378 Y2.042
G1 X0.3491 Y2.0321
G1 X0.3635 Y2.0254
G1 X0.3869 Y2.0206
G1 X0.4117 Y2.0194
G1 X0.4118
G1 X0.4292 Y2.02
G1 F5.0 X0.4295 Y2.016
G1 F10.0 X0.4396 Y2.017
G1 X0.4661 Y2.0234
G1 X0.4814 Y2.032
G1 X0.4941 Y2.0482
G1 X0.4981 Y2.0686
G1 Y2.0688
G1 X0.4959 Y2.0845
G1 X0.4887 Y2.098
G1 X0.4763 Y2.1088
G1 X0.4611 Y2.1158
G1 X0.4369 Y2.1208
G1 X0.4118 Y2.1221
G1 X0.4117
G1 X0.3909 Y2.1213
G1 X0.3707 Y2.1182
G1 X0.3455 Y2.1077
G1 X0.3306 Y2.0917
G1 X0.3253 Y2.0688
G1 Y2.0687
G1 X0.3275 Y2.053
G1 X0.3347 Y2.0394
G1 X0.347 Y2.0287
G1 X0.3623 Y2.0216
G1 X0.3865 Y2.0166
G1 X0.4117 Y2.0154
G1 X0.4118
G1 X0.4295 Y2.016
G1 F5.0 X0.429 Y2.022
G1 Z-0.025
G1 F10.0 X0.4388 Y2.023
G1 X0.4389
G1 X0.4444 Y2.0238
G1 X0.443 Y2.0236
G1 X0.4117 Y2.022
G1 X0.3876 Y2.023
G1 X0.3719 Y2.0251
G1 X0.3871 Y2.0226
G1 X0.4117 Y2.0214
G1 X0.4118
G1 X0.429 Y2.022
G0 Z0.05
G0 X0.4366 Y2.1145
G1 F5.0 Z-0.025
G1 F10.0 X0.4473 Y2.1132
G1 X0.4364 Y2.1148
G1 X0.4363
G1 X0.4118 Y2.1161
G1 X0.4117
G1 X0.3913 Y2.1153
G1 X0.3758 Y2.1132
G1 X0.3805 Y2.1138
G1 X0.4118 Y2.1155
G1 X0.4351 Y2.1146
G1 X0.4366 Y2.1145
G1 F5.0 X0.4364 Y2.1125
G1 F10.0 X0.4587 Y2.1088
G1 X0.4753 Y2.1016
G1 X0.4885 Y2.0882
G1 X0.4886 Y2.088
G1 X0.494 Y2.0687
G1 X0.4887 Y2.0495
G1 X0.4886 Y2.0493
G1 X0.4755 Y2.0358
G1 X0.4753 Y2.0357
G1 X0.4587 Y2.0286
G1 X0.4428 Y2.0256
G1 X0.4427
G1 X0.4117 Y2.024
G1 X0.3877 Y2.025
G1 X0.3632 Y2.0293
G1 X0.3464 Y2.0368
G1 X0.3306 Y2.059
G1 X0.3295 Y2.0685
G1 X0.3348 Y2.0878
G1 Y2.0879
G1 X0.348 Y2.1016
G1 X0.3481
G1 X0.3647 Y2.1088
G1 X0.3807 Y2.1118
G1 X0.4118 Y2.1135
G1 X0.4349 Y2.1126
G1 X0.4364 Y2.1125
G1 F5.0 X0.4361 Y2.1085
G1 F10.0 X0.4577 Y2.105
G1 X0.4731 Y2.0983
G1 X0.4851 Y2.086
G1 X0.4852 Y2.0859
G1 X0.49 Y2.0687
G1 X0.4852 Y2.0515
G1 Y2.0514
G1 X0.4733 Y2.0391
G1 X0.4732 Y2.039
G1 X0.4578 Y2.0324
G1 X0.4423 Y2.0296
G1 X0.4117 Y2.028
G1 X0.3881 Y2.0289
G1 X0.3642 Y2.0331
G1 X0.3486 Y2.0401
G1 X0.3341 Y2.0614
G1 X0.3335 Y2.0685
G1 X0.3382 Y2.0857
G1 Y2.0858
G1 X0.3502 Y2.0983
G1 X0.3503
G1 X0.3657 Y2.105
G1 X0.3812 Y2.1079
G1 X0.4118 Y2.1095
G1 X0.4346 Y2.1086
G1 X0.4361 Y2.1085
G0 Z0.05
G0 X0.4369 Y2.1168
G1 F5.0 Z-0.025
G1 F10.0 X0.4366
G1 X0.4365
G1 X0.4118 Y2.1181
G1 X0.4117
G1 X0.3912 Y2.1173
G1 X0.3911
G1 X0.3716 Y2.1143
G1 X0.3477 Y2.1043
G1 X0.3341 Y2.0898
G1 X0.3293 Y2.0689
G1 Y2.0686
G1 X0.3313 Y2.0541
G1 X0.3378 Y2.042
G1 X0.3491 Y2.0321
G1 X0.3635 Y2.0254
G1 X0.3869 Y2.0206
G1 X0.4117 Y2.0194
G1 X0.4118
G1 X0.4391 Y2.021
G1 X0.4647 Y2.0272
G1 X0.479 Y2.0352
G1 X0.4904 Y2.0498
G1 X0.4941 Y2.0686
G1 Y2.0688
G1 X0.492 Y2.0833
G1 X0.4856 Y2.0955
G1 X0.4742 Y2.1054
G1 X0.4599 Y2.112
G1 X0.4369 Y2.1168
G1 F5.0 X0.4373 Y2.1208
G1 F10.0 X0.4369
G1 X0.4118 Y2.1221
G1 X0.4117
G1 X0.3909 Y2.1213
G1 X0.3707 Y2.1182
G1 X0.3455 Y2.1077
G1 X0.3306 Y2.0917
G1 X0.3253 Y2.0688
G1 Y2.0687
G1 X0.3275 Y2.053
G1 X0.3347 Y2.0394
G1 X0.347 Y2.0287
G1 X0.3623 Y2.0216
G1 X0.3865 Y2.0166
G1 X0.4117 Y2.0154
G1 X0.4118
G1 X0.4396 Y2.017
G1 X0.4661 Y2.0234
G1 X0.4814 Y2.032
G1 X0.4941 Y2.0482
G1 X0.4981 Y2.0686
G1 Y2.0688
G1 X0.4959 Y2.0845
G1 X0.4887 Y2.098
G1 X0.4763 Y2.1088
G1 X0.4611 Y2.1158
G1 X0.4373 Y2.1208
G1 F5.0 X0.4367 Y2.1148
G1 Z-0.03
G1 F10.0 X0.4364
G1 X0.4363
G1 X0.4118 Y2.1161
G1 X0.4117
G1 X0.3913 Y2.1153
G1 X0.3758 Y2.1132
G1 X0.3805 Y2.1138
G1 X0.4118 Y2.1155
G1 X0.4351 Y2.1146
G1 X0.4473 Y2.1132
G1 X0.4367 Y2.1148
G0 Z0.05
G0 X0.4444 Y2.0238
G0 Z0.0375
G1 F5.0 Z-0.03
G1 F10.0 X0.443 Y2.0236
G1 X0.4117 Y2.022
G1 X0.3876 Y2.023
G1 X0.3719 Y2.0251
G1 X0.3871 Y2.0226
G1 X0.4117 Y2.0214
G1 X0.4118
G1 X0.4388 Y2.023
G1 X0.4389
G1 X0.4444 Y2.0238
G1 F5.0 X0.4442 Y2.0258
G1 F10.0 X0.4428 Y2.0256
G1 X0.4427
G1 X0.4117 Y2.024
G1 X0.3877 Y2.025
G1 X0.3632 Y2.0293
G1 X0.3464 Y2.0368
G1 X0.3306 Y2.059
G1 X0.3295 Y2.0685
G1 X0.3348 Y2.0878
G1 Y2.0879
G1 X0.348 Y2.1016
G1 X0.3481
G1 X0.3647 Y2.1088
G1 X0.3807 Y2.1118
G1 X0.4118 Y2.1135
G1 X0.4349 Y2.1126
G1 X0.4587 Y2.1088
G1 X0.4753 Y2.1016
G1 X0.4885 Y2.0882
G1 X0.4886 Y2.088
G1 X0.494 Y2.0687
G1 X0.4887 Y2.0495
G1 X0.4886 Y2.0493
G1 X0.4755 Y2.0358
G1 X0.4753 Y2.0357
G1 X0.4587 Y2.0286
G1 X0.4442 Y2.0258
G1 F5.0 X0.4437 Y2.0297
G1 F10.0 X0.4423 Y2.0296
G1 X0.4117 Y2.028
G1 X0.3881 Y2.0289
G1 X0.3642 Y2.0331
G1 X0.3486 Y2.0401
G1 X0.3341 Y2.0614
G1 X0.3335 Y2.0685
G1 X0.3382 Y2.0857
G1 Y2.0858
G1 X0.3502 Y2.0983
G1 X0.3503
G1 X0.3657 Y2.105
G1 X0.3812 Y2.1079
G1 X0.4118 Y2.1095
G1 X0.4346 Y2.1086
G1 X0.4577 Y2.105
G1 X0.4731 Y2.0983
G1 X0.4851 Y2.086
G1 X0.4852 Y2.0859
G1 X0.49 Y2.0687
G1 X0.4852 Y2.0515
G1 Y2.0514
G1 X0.4733 Y2.0391
G1 X0.4732 Y2.039
G1 X0.4578 Y2.0324
G1 X0.4437 Y2.0297
G0 Z0.05
G0 X0.445 Y2.0219
G0 Z0.0475
G1 F5.0 Z-0.03
G1 F10.0 X0.4647 Y2.0272
G1 X0.479 Y2.0352
G1 X0.4904 Y2.0498
G1 X0.4941 Y2.0686
G1 Y2.0688
G1 X0.492 Y2.0833
G1 X0.4856 Y2.0955
G1 X0.4742 Y2.1054
G1 X0.4599 Y2.112
G1 X0.4366 Y2.1168
G1 X0.4365
G1 X0.4118 Y2.1181
G1 X0.4117
G1 X0.3912 Y2.1173
G1 X0.3911
G1 X0.3716 Y2.1143
G1 X0.3477 Y2.1043
G1 X0.3341 Y2.0898
G1 X0.3293 Y2.0689
G1 Y2.0686
G1 X0.3313 Y2.0541
G1 X0.3378 Y2.042
G1 X0.3491 Y2.0321
G1 X0.3635 Y2.0254
G1 X0.3869 Y2.0206
G1 X0.4117 Y2.0194
G1 X0.4118
G1 X0.4391 Y2.021
G1 X0.445 Y2.0219
G1 F5.0 X0.4457 Y2.0179
G1 F10.0 X0.4661 Y2.0234
G1 X0.4814 Y2.032
G1 X0.4941 Y2.0482
G1 X0.4981 Y2.0686
G1 Y2.0688
G1 X0.4959 Y2.0845
G1 X0.4887 Y2.098
G1 X0.4763 Y2.1088
G1 X0.4611 Y2.1158
G1 X0.4369 Y2.1208
G1 X0.4118 Y2.1221
G1 X0.4117
G1 X0.3909 Y2.1213
G1 X0.3707 Y2.1182
G1 X0.3455 Y2.1077
G1 X0.3306 Y2.0917
G1 X0.3253 Y2.0688
G1 Y2.0687
G1 X0.3275 Y2.053
G1 X0.3347 Y2.0394
G1 X0.347 Y2.0287
G1 X0.3623 Y2.0216
G1 X0.3865 Y2.0166
G1 X0.4117 Y2.0154
G1 X0.4118
G1 X0.4396 Y2.017
G1 X0.4457 Y2.0179
G0 Z0.05
G0 X0.487 Y1.8889
G1 F5.0 Z-0.015
G1 F10.0 X0.4823 Y1.8865
G1 X0.487 Y1.8842
G1 Y1.8889
G1 F5.0 X0.4845 Y1.892
G1 F10.0 X0.4741 Y1.8914
G1 X0.4608 Y1.9019
G1 X0.4607
G1 X0.4487 Y1.9149
G1 X0.4376 Y1.9279
G1 X0.4226 Y1.9451
G1 X0.4225
G1 X0.4069 Y1.9609
G1 X0.3975 Y1.9683
G1 Y1.9684
G1 X0.3875 Y1.9739
G1 X0.37 Y1.9776
G1 X0.3698
G1 X0.3439 Y1.9681
G1 X0.3412 Y1.9654
G1 X0.3411
G1 X0.332 Y1.9499
G1 X0.3293 Y1.9309
G1 Y1.9307
G1 X0.3319 Y1.9117
G1 X0.3404 Y1.8961
G1 X0.3545 Y1.886
G1 X0.3641 Y1.883
G1 X0.3645 Y1.8871
G1 X0.3575 Y1.8889
G1 X0.3574
G1 X0.3417 Y1.8985
G1 X0.3322 Y1.9137
G1 X0.3321
G1 X0.3295 Y1.9303
G1 X0.332 Y1.9462
G1 X0.3321 Y1.9463
G1 X0.341 Y1.9608
G1 X0.3658 Y1.9729
G1 X0.3697 Y1.973
G1 X0.3872 Y1.9692
G1 X0.4014 Y1.9609
G1 X0.4126 Y1.9513
G1 X0.4226 Y1.9411
G1 X0.4408 Y1.92
G1 X0.4534 Y1.9054
G1 X0.4668 Y1.8923
G1 X0.488 Y1.8795
G1 X0.491 Y1.8785
G1 Y1.9778
G1 X0.4879
G1 Y1.899
G1 X0.4845 Y1.892
G1 F5.0 X0.482 Y1.8951
G1 F10.0 X0.4762 Y1.8948
G1 X0.4636 Y1.9047
G1 X0.4635 Y1.9048
G1 X0.4517 Y1.9175
G1 X0.4406 Y1.9305
G1 X0.4255 Y1.9478
G1 X0.4096 Y1.9638
G1 X0.3998 Y1.9716
G1 X0.3891 Y1.9776
G1 X0.37 Y1.9816
G1 X0.3699
G1 X0.3425 Y1.9722
G1 X0.3383 Y1.9682
G1 X0.3382 Y1.9681
G1 X0.3282 Y1.9511
G1 X0.3253 Y1.9308
G1 Y1.9307
G1 X0.328 Y1.9106
G1 X0.3374 Y1.8934
G1 X0.353 Y1.8823
G1 X0.3676 Y1.8782
G1 X0.3689 Y1.8905
G1 X0.3587 Y1.8927
G1 X0.3445 Y1.9014
G1 X0.3359 Y1.915
G1 X0.3335 Y1.9303
G1 X0.3358 Y1.945
G1 X0.3439 Y1.958
G1 X0.3676 Y1.969
G1 X0.3696
G1 X0.3856 Y1.9655
G1 X0.399 Y1.9577
G1 X0.4099 Y1.9484
G1 X0.4196 Y1.9384
G1 X0.4377 Y1.9175
G1 X0.4505 Y1.9027
G1 X0.4642 Y1.8893
G1 X0.4865 Y1.8758
G1 X0.495 Y1.8737
G1 Y1.9818
G1 X0.4839
G1 Y1.899
G1 X0.482 Y1.8951
G0 Z0.05
G0 X0.487 Y1.8889
G0 Z0.0475
G1 F5.0 Z-0.025
G1 F10.0 X0.4823 Y1.8865
G1 X0.487 Y1.8842
G1 Y1.8889
G1 F5.0 X0.4845 Y1.892
G1 F10.0 X0.4741 Y1.8914
G1 X0.4608 Y1.9019
G1 X0.4607
G1 X0.4487 Y1.9149
G1 X0.4376 Y1.9279
G1 X0.4226 Y1.9451
G1 X0.4225
G1 X0.4069 Y1.9609
G1 X0.3975 Y1.9683
G1 Y1.9684
G1 X0.3875 Y1.9739
G1 X0.37 Y1.9776
G1 X0.3698
G1 X0.3439 Y1.9681
G1 X0.3412 Y1.9654
G1 X0.3411
G1 X0.332 Y1.9499
G1 X0.3293 Y1.9309
G1 Y1.9307
G1 X0.3319 Y1.9117
G1 X0.3404 Y1.8961
G1 X0.3545 Y1.886
G1 X0.3641 Y1.883
G1 X0.3645 Y1.8871
G1 X0.3575 Y1.8889
G1 X0.3574
G1 X0.3417 Y1.8985
G1 X0.3322 Y1.9137
G1 X0.3321
G1 X0.3295 Y1.9303
G1 X0.332 Y1.9462
G1 X0.3321 Y1.9463
G1 X0.341 Y1.9608
G1 X0.3658 Y1.9729
G1 X0.3697 Y1.973
G1 X0.3872 Y1.9692
G1 X0.4014 Y1.9609
G1 X0.4126 Y1.9513
G1 X0.4226 Y1.9411
G1 X0.4408 Y1.92
G1 X0.4534 Y1.9054
G1 X0.4668 Y1.8923
G1 X0.488 Y1.8795
G1 X0.491 Y1.8785
G1 Y1.9778
G1 X0.4879
G1 Y1.899
G1 X0.4845 Y1.892
G1 F5.0 X0.482 Y1.8951
G1 F10.0 X0.4762 Y1.8948
G1 X0.4636 Y1.9047
G1 X0.4635 Y1.9048
G1 X0.4517 Y1.9175
G1 X0.4406 Y1.9305
G1 X0.4255 Y1.9478
G1 X0.4096 Y1.9638
G1 X0.3998 Y1.9716
G1 X0.3891 Y1.9776
G1 X0.37 Y1.9816
G1 X0.3699
G1 X0.3425 Y1.9722
G1 X0.3383 Y1.9682
G1 X0.3382 Y1.9681
G1 X0.3282 Y1.9511
G1 X0.3253 Y1.9308
G1 Y1.9307
G1 X0.328 Y1.9106
G1 X0.3374 Y1.8934
G1 X0.353 Y1.8823
G1 X0.3676 Y1.8782
G1 X0.3689 Y1.8905
G1 X0.3587 Y1.8927
G1 X0.3445 Y1.9014
G1 X0.3359 Y1.915
G1 X0.3335 Y1.9303
G1 X0.3358 Y1.945
G1 X0.3439 Y1.958
G1 X0.3676 Y1.969
G1 X0.3696
G1 X0.3856 Y1.9655
G1 X0.399 Y1.9577
G1 X0.4099 Y1.9484
G1 X0.4196 Y1.9384
G1 X0.4377 Y1.9175
G1 X0.4505 Y1.9027
G1 X0.4642 Y1.8893
G1 X0.4865 Y1.8758
G1 X0.495 Y1.8737
G1 Y1.9818
G1 X0.4839
G1 Y1.899
G1 X0.482 Y1.8951
G0 Z0.05
G0 X0.487 Y1.8889
G0 Z0.0375
G1 F5.0 Z-0.03
G1 F10.0 X0.4823 Y1.8865
G1 X0.487 Y1.8842
G1 Y1.8889
G1 F5.0 X0.4845 Y1.892
G1 F10.0 X0.4741 Y1.8914
G1 X0.4608 Y1.9019
G1 X0.4607
G1 X0.4487 Y1.9149
G1 X0.4376 Y1.9279
G1 X0.4226 Y1.9451
G1 X0.4225
G1 X0.4069 Y1.9609
G1 X0.3975 Y1.9683
G1 Y1.9684
G1 X0.3875 Y1.9739
G1 X0.37 Y1.9776
G1 X0.3698
G1 X0.3439 Y1.9681
G1 X0.3412 Y1.9654
G1 X0.3411
G1 X0.332 Y1.9499
G1 X0.3293 Y1.9309
G1 Y1.9307
G1 X0.3319 Y1.9117
G1 X0.3404 Y1.8961
G1 X0.3545 Y1.886
G1 X0.3641 Y1.883
G1 X0.3645 Y1.8871
G1 X0.3575 Y1.8889
G1 X0.3574
G1 X0.3417 Y1.8985
G1 X0.3322 Y1.9137
G1 X0.3321
G1 X0.3295 Y1.9303
G1 X0.332 Y1.9462
G1 X0.3321 Y1.9463
G1 X0.341 Y1.9608
G1 X0.3658 Y1.9729
G1 X0.3697 Y1.973
G1 X0.3872 Y1.9692
G1 X0.4014 Y1.9609
G1 X0.4126 Y1.9513
G1 X0.4226 Y1.9411
G1 X0.4408 Y1.92
G1 X0.4534 Y1.9054
G1 X0.4668 Y1.8923
G1 X0.488 Y1.8795
G1 X0.491 Y1.8785
G1 Y1.9778
G1 X0.4879
G1 Y1.899
G1 X0.4845 Y1.892
G1 F5.0 X0.482 Y1.8951
G1 F10.0 X0.4762 Y1.8948
G1 X0.4636 Y1.9047
G1 X0.4635 Y1.9048
G1 X0.4517 Y1.9175
G1 X0.4406 Y1.9305
G1 X0.4255 Y1.9478
G1 X0.4096 Y1.9638
G1 X0.3998 Y1.9716
G1 X0.3891 Y1.9776
G1 X0.37 Y1.9816
G1 X0.3699
G1 X0.3425 Y1.9722
G1 X0.3383 Y1.9682
G1 X0.3382 Y1.9681
G1 X0.3282 Y1.9511
G1 X0.3253 Y1.9308
G1 Y1.9307
G1 X0.328 Y1.9106
G1 X0.3374 Y1.8934
G1 X0.353 Y1.8823
G1 X0.3676 Y1.8782
G1 X0.3689 Y1.8905
G1 X0.3587 Y1.8927
G1 X0.3445 Y1.9014
G1 X0.3359 Y1.915
G1 X0.3335 Y1.9303
G1 X0.3358 Y1.945
G1 X0.3439 Y1.958
G1 X0.3676 Y1.969
G1 X0.3696
G1 X0.3856 Y1.9655
G1 X0.399 Y1.9577
G1 X0.4099 Y1.9484
G1 X0.4196 Y1.9384
G1 X0.4377 Y1.9175
G1 X0.4505 Y1.9027
G1 X0.4642 Y1.8893
G1 X0.4865 Y1.8758
G1 X0.495 Y1.8737
G1 Y1.9818
G1 X0.4839
G1 Y1.899
G1 X0.482 Y1.8951
G0 Z0.05
G0 X0.4283 Y1.1155
G1 F5.0 Z-0.015
G1 F10.0 X0.4118 Y1.1161
G1 X0.4117
G1 X0.3913 Y1.1153
G1 X0.3758 Y1.1132
G1 X0.3805 Y1.1138
G1 X0.4118 Y1.1155
G1 X0.4351 Y1.1146
G1 X0.4473 Y1.1132
G1 X0.4364 Y1.1148
G1 X0.4363
G1 X0.4283 Y1.1155
G0 Z0.05
G0 X0.4363 Y1.0229
G1 F5.0 Z-0.015
G1 F10.0 X0.4117 Y1.022
G1 X0.3876 Y1.023
G1 X0.3719 Y1.0251
G1 X0.3871 Y1.0226
G1 X0.4117 Y1.0214
G1 X0.4118
G1 X0.4388 Y1.023
G1 X0.4389
G1 X0.4444 Y1.0238
G1 X0.443 Y1.0236
G1 X0.4363 Y1.0229
G1 F5.0 X0.4361 Y1.0249
G1 F10.0 X0.4117 Y1.024
G1 X0.3877 Y1.025
G1 X0.3632 Y1.0293
G1 X0.3464 Y1.0368
G1 X0.3306 Y1.059
G1 X0.3295 Y1.0685
G1 X0.3348 Y1.0878
G1 Y1.0879
G1 X0.348 Y1.1016
G1 X0.3481
G1 X0.3647 Y1.1088
G1 X0.3807 Y1.1118
G1 X0.4118 Y1.1135
G1 X0.4349 Y1.1126
G1 X0.4587 Y1.1088
G1 X0.4753 Y1.1016
G1 X0.4885 Y1.0882
G1 X0.4886 Y1.088
G1 X0.494 Y1.0687
G1 X0.4887 Y1.0495
G1 X0.4886 Y1.0493
G1 X0.4755 Y1.0358
G1 X0.4753 Y1.0357
G1 X0.4587 Y1.0286
G1 X0.4428 Y1.0256
G1 X0.4427
G1 X0.4361 Y1.0249
G1 F5.0 X0.4358 Y1.0289
G1 F10.0 X0.4117 Y1.028
G1 X0.3881 Y1.0289
G1 X0.3642 Y1.0331
G1 X0.3486 Y1.0401
G1 X0.3341 Y1.0614
G1 X0.3335 Y1.0685
G1 X0.3382 Y1.0857
G1 Y1.0858
G1 X0.3502 Y1.0983
G1 X0.3503
G1 X0.3657 Y1.105
G1 X0.3812 Y1.1079
G1 X0.4118 Y1.1095
G1 X0.4346 Y1.1086
G1 X0.4577 Y1.105
G1 X0.4731 Y1.0983
G1 X0.4851 Y1.086
G1 X0.4852 Y1.0859
G1 X0.49 Y1.0687
G1 X0.4852 Y1.0515
G1 Y1.0514
G1 X0.4733 Y1.0391
G1 X0.4732 Y1.039
G1 X0.4578 Y1.0324
G1 X0.4423 Y1.0296
G1 X0.4358 Y1.0289
G0 Z0.05
G0 X0.4367 Y1.0207
G1 F5.0 Z-0.015
G1 F10.0 X0.4391 Y1.021
G1 X0.4647 Y1.0272
G1 X0.479 Y1.0352
G1 X0.4904 Y1.0498
G1 X0.4941 Y1.0686
G1 Y1.0688
G1 X0.492 Y1.0833
G1 X0.4856 Y1.0955
G1 X0.4742 Y1.1054
G1 X0.4599 Y1.112
G1 X0.4366 Y1.1168
G1 X0.4365
G1 X0.4118 Y1.1181
G1 X0.4117
G1 X0.3912 Y1.1173
G1 X0.3911
G1 X0.3716 Y1.1143
G1 X0.3477 Y1.1043
G1 X0.3341 Y1.0898
G1 X0.3293 Y1.0689
G1 Y1.0686
G1 X0.3313 Y1.0541
G1 X0.3378 Y1.042
G1 X0.3491 Y1.0321
G1 X0.3635 Y1.0254
G1 X0.3869 Y1.0206
G1 X0.4117 Y1.0194
G1 X0.4118
G1 X0.4367 Y1.0207
G1 F5.0 X0.4372 Y1.0167
G1 F10.0 X0.4396 Y1.017
G1 X0.4661 Y1.0234
G1 X0.4814 Y1.032
G1 X0.4941 Y1.0482
G1 X0.4981 Y1.0686
G1 Y1.0688
G1 X0.4959 Y1.0845
G1 X0.4887 Y1.098
G1 X0.4763 Y1.1088
G1 X0.4611 Y1.1158
G1 X0.4369 Y1.1208
G1 X0.4118 Y1.1221
G1 X0.4117
G1 X0.3909 Y1.1213
G1 X0.3707 Y1.1182
G1 X0.3455 Y1.1077
G1 X0.3306 Y1.0917
G1 X0.3253 Y1.0688
G1 Y1.0687
G1 X0.3275 Y1.053
G1 X0.3347 Y1.0394
G1 X0.347 Y1.0287
G1 X0.3623 Y1.0216
G1 X0.3865 Y1.0166
G1 X0.4117 Y1.0154
G1 X0.4118
G1 X0.4372 Y1.0167
G1 F5.0 X0.4365 Y1.0227
G1 Z-0.025
G1 F10.0 X0.4388 Y1.023
G1 X0.4389
G1 X0.4444 Y1.0238
G1 X0.443 Y1.0236
G1 X0.4117 Y1.022
G1 X0.3876 Y1.023
G1 X0.3719 Y1.0251
G1 X0.3871 Y1.0226
G1 X0.4117 Y1.0214
G1 X0.4118
G1 X0.4365 Y1.0227
G0 Z0.05
G0 X0.4473 Y1.1132
G0 Z0.0475
G1 F5.0 Z-0.025
G1 F10.0 X0.4364 Y1.1148
G1 X0.4363
G1 X0.4118 Y1.1161
G1 X0.4117
G1 X0.3913 Y1.1153
G1 X0.3758 Y1.1132
G1 X0.3805 Y1.1138
G1 X0.4118 Y1.1155
G1 X0.4351 Y1.1146
G1 X0.4473 Y1.1132
G1 F5.0 X0.447 Y1.1112
G1 F10.0 X0.4587 Y1.1088
G1 X0.4753 Y1.1016
G1 X0.4885 Y1.0882
G1 X0.4886 Y1.088
G1 X0.494 Y1.0687
G1 X0.4887 Y1.0495
G1 X0.4886 Y1.0493
G1 X0.4755 Y1.0358
G1 X0.4753 Y1.0357
G1 X0.4587 Y1.0286
G1 X0.4428 Y1.0256
G1 X0.4427
G1 X0.4117 Y1.024
G1 X0.3877 Y1.025
G1 X0.3632 Y1.0293
G1 X0.3464 Y1.0368
G1 X0.3306 Y1.059
G1 X0.3295 Y1.0685
G1 X0.3348 Y1.0878
G1 Y1.0879
G1 X0.348 Y1.1016
G1 X0.3481
G1 X0.3647 Y1.1088
G1 X0.3807 Y1.1118
G1 X0.4118 Y1.1135
G1 X0.4349 Y1.1126
G1 X0.447 Y1.1112
G1 F5.0 X0.4463 Y1.1073
G1 F10.0 X0.4577 Y1.105
G1 X0.4731 Y1.0983
G1 X0.4851 Y1.086
G1 X0.4852 Y1.0859
G1 X0.49 Y1.0687
G1 X0.4852 Y1.0515
G1 Y1.0514
G1 X0.4733 Y1.0391
G1 X0.4732 Y1.039
G1 X0.4578 Y1.0324
G1 X0.4423 Y1.0296
G1 X0.4117 Y1.028
G1 X0.3881 Y1.0289
G1 X0.3642 Y1.0331
G1 X0.3486 Y1.0401
G1 X0.3341 Y1.0614
G1 X0.3335 Y1.0685
G1 X0.3382 Y1.0857
G1 Y1.0858
G1 X0.3502 Y1.0983
G1 X0.3503
G1 X0.3657 Y1.105
G1 X0.3812 Y1.1079
G1 X0.4118 Y1.1095
G1 X0.4346 Y1.1086
G1 X0.4463 Y1.1073
G0 Z0.05
G0 X0.4479 Y1.1151
G1 F5.0 Z-0.025
G1 F10.0 X0.4366 Y1.1168
G1 X0.4365
G1 X0.4118 Y1.1181
G1 X0.4117
G1 X0.3912 Y1.1173
G1 X0.3911
G1 X0.3716 Y1.1143
G1 X0.3477 Y1.1043
G1 X0.3341 Y1.0898
G1 X0.3293 Y1.0689
G1 Y1.0686
G1 X0.3313 Y1.0541
G1 X0.3378 Y1.042
G1 X0.3491 Y1.0321
G1 X0.3635 Y1.0254
G1 X0.3869 Y1.0206
G1 X0.4117 Y1.0194
G1 X0.4118
G1 X0.4391 Y1.021
G1 X0.4647 Y1.0272
G1 X0.479 Y1.0352
G1 X0.4904 Y1.0498
G1 X0.4941 Y1.0686
G1 Y1.0688
G1 X0.492 Y1.0833
G1 X0.4856 Y1.0955
G1 X0.4742 Y1.1054
G1 X0.4599 Y1.112
G1 X0.4479 Y1.1151
G1 F5.0 X0.4487 Y1.1191
G1 F10.0 X0.4369 Y1.1208
G1 X0.4118 Y1.1221
G1 X0.4117
G1 X0.3909 Y1.1213
G1 X0.3707 Y1.1182
G1 X0.3455 Y1.1077
G1 X0.3306 Y1.0917
G1 X0.3253 Y1.0688
G1 Y1.0687
G1 X0.3275 Y1.053
G1 X0.3347 Y1.0394
G1 X0.347 Y1.0287
G1 X0.3623 Y1.0216
G1 X0.3865 Y1.0166
G1 X0.4117 Y1.0154
G1 X0.4118
G1 X0.4396 Y1.017
G1 X0.4661 Y1.0234
G1 X0.4814 Y1.032
G1 X0.4941 Y1.0482
G1 X0.4981 Y1.0686
G1 Y1.0688
G1 X0.4959 Y1.0845
G1 X0.4887 Y1.098
G1 X0.4763 Y1.1088
G1 X0.4611 Y1.1158
G1 X0.4487 Y1.1191
G1 F5.0 X0.4473 Y1.1132
G1 Z-0.03
G1 F10.0 X0.4364 Y1.1148
G1 X0.4363
G1 X0.4118 Y1.1161
G1 X0.4117
G1 X0.3913 Y1.1153
G1 X0.3758 Y1.1132
G1 X0.3805 Y1.1138
G1 X0.4118 Y1.1155
G1 X0.4351 Y1.1146
G1 X0.4473 Y1.1132
G0 Z0.05
G0 X0.4444 Y1.0238
G0 Z0.0375
G1 F5.0 Z-0.03
G1 F10.0 X0.443 Y1.0236
G1 X0.4117 Y1.022
G1 X0.3876 Y1.023
G1 X0.3719 Y1.0251
G1 X0.3871 Y1.0226
G1 X0.4117 Y1.0214
G1 X0.4118
G1 X0.4388 Y1.023
G1 X0.4389
G1 X0.4444 Y1.0238
G1 F5.0 X0.4442 Y1.0258
G1 F10.0 X0.4428 Y1.0256
G1 X0.4427
G1 X0.4117 Y1.024
G1 X0.3877 Y1.025
G1 X0.3632 Y1.0293
G1 X0.3464 Y1.0368
G1 X0.3306 Y1.059
G1 X0.3295 Y1.0685
G1 X0.3348 Y1.0878
G1 Y1.0879
G1 X0.348 Y1.1016
G1 X0.3481
G1 X0.3647 Y1.1088
G1 X0.3807 Y1.1118
G1 X0.4118 Y1.1135
G1 X0.4349 Y1.1126
G1 X0.4587 Y1.1088
G1 X0.4753 Y1.1016
G1 X0.4885 Y1.0882
G1 X0.4886 Y1.088
G1 X0.494 Y1.0687
G1 X0.4887 Y1.0495
G1 X0.4886 Y1.0493
G1 X0.4755 Y1.0358
G1 X0.4753 Y1.0357
G1 X0.4587 Y1.0286
G1 X0.4442 Y1.0258
G1 F5.0 X0.4437 Y1.0297
G1 F10.0 X0.4423 Y1.0296
G1 X0.4117 Y1.028
G1 X0.3881 Y1.0289
G1 X0.3642 Y1.0331
G1 X0.3486 Y1.0401
G1 X0.3341 Y1.0614
G1 X0.3335 Y1.0685
G1 X0.3382 Y1.0857
G1 Y1.0858
G1 X0.3502 Y1.0983
G1 X0.3503
G1 X0.3657 Y1.105
G1 X0.3812 Y1.1079
G1 X0.4118 Y1.1095
G1 X0.4346 Y1.1086
G1 X0.4577 Y1.105
G1 X0.4731 Y1.0983
G1 X0.4851 Y1.086
G1 X0.4852 Y1.0859
G1 X0.49 Y1.0687
G1 X0.4852 Y1.0515
G1 Y1.0514
G1 X0.4733 Y1.0391
G1 X0.4732 Y1.039
G1 X0.4578 Y1.0324
G1 X0.4437 Y1.0297
G0 Z0.05
G0 X0.445 Y1.0219
G0 Z0.0475
G1 F5.0 Z-0.03
G1 F10.0 X0.4647 Y1.0272
G1 X0.479 Y1.0352
G1 X0.4904 Y1.0498
G1 X0.4941 Y1.0686
G1 Y1.0688
G1 X0.492 Y1.0833
G1 X0.4856 Y1.0955
G1 X0.4742 Y1.1054
G1 X0.4599 Y1.112
G1 X0.4366 Y1.1168
G1 X0.4365
G1 X0.4118 Y1.1181
G1 X0.4117
G1 X0.3912 Y1.1173
G1 X0.3911
G1 X0.3716 Y1.1143
G1 X0.3477 Y1.1043
G1 X0.3341 Y1.0898
G1 X0.3293 Y1.0689
G1 Y1.0686
G1 X0.3313 Y1.0541
G1 X0.3378 Y1.042
G1 X0.3491 Y1.0321
G1 X0.3635 Y1.0254
G1 X0.3869 Y1.0206
G1 X0.4117 Y1.0194
G1 X0.4118
G1 X0.4391 Y1.021
G1 X0.445 Y1.0219
G1 F5.0 X0.4457 Y1.0179
G1 F10.0 X0.4661 Y1.0234
G1 X0.4814 Y1.032
G1 X0.4941 Y1.0482
G1 X0.4981 Y1.0686
G1 Y1.0688
G1 X0.4959 Y1.0845
G1 X0.4887 Y1.098
G1 X0.4763 Y1.1088
G1 X0.4611 Y1.1158
G1 X0.4369 Y1.1208
G1 X0.4118 Y1.1221
G1 X0.4117
G1 X0.3909 Y1.1213
G1 X0.3707 Y1.1182
G1 X0.3455 Y1.1077
G1 X0.3306 Y1.0917
G1 X0.3253 Y1.0688
G1 Y1.0687
G1 X0.3275 Y1.053
G1 X0.3347 Y1.0394
G1 X0.347 Y1.0287
G1 X0.3623 Y1.0216
G1 X0.3865 Y1.0166
G1 X0.4117 Y1.0154
G1 X0.4118
G1 X0.4396 Y1.017
G1 X0.4457 Y1.0179
G0 Z0.05
G0 X0.3506 Y0.9411
G1 F5.0 Z-0.015
G1 F10.0 X0.3417
G1 X0.3475 Y0.9358
G1 X0.3506 Y0.9411
G1 F5.0 Y0.9451
G1 F10.0 X0.3295
G1 X0.339 Y0.9381
G1 X0.351 Y0.9264
G1 X0.3709 Y0.8972
G1 X0.3726
G1 X0.3674 Y0.9066
G1 X0.3673 Y0.9068
G1 X0.3533 Y0.9261
G1 X0.36 Y0.9411
G1 X0.491
G1 Y0.9451
G1 X0.3506
G1 F5.0 Y0.9491
G1 F10.0 X0.3253
G1 Y0.9429
G1 X0.3364 Y0.9351
G1 X0.348 Y0.9237
G1 X0.3684 Y0.8932
G1 X0.379
G1 X0.3708 Y0.9087
G1 Y0.9088
G1 X0.3563 Y0.9288
G1 X0.36 Y0.9371
G1 X0.495
G1 Y0.9491
G1 X0.3506
G0 Z0.05
G0 Y0.9411
G0 Z0.0475
G1 F5.0 Z-0.025
G1 F10.0 X0.3417
G1 X0.3475 Y0.9358
G1 X0.3506 Y0.9411
G1 F5.0 Y0.9451
G1 F10.0 X0.3295
G1 X0.339 Y0.9381
G1 X0.351 Y0.9264
G1 X0.3709 Y0.8972
G1 X0.3726
G1 X0.3674 Y0.9066
G1 X0.3673 Y0.9068
G1 X0.3533 Y0.9261
G1 X0.36 Y0.9411
G1 X0.491
G1 Y0.9451
G1 X0.3506
G1 F5.0 Y0.9491
G1 F10.0 X0.3253
G1 Y0.9429
G1 X0.3364 Y0.9351
G1 X0.348 Y0.9237
G1 X0.3684 Y0.8932
G1 X0.379
G1 X0.3708 Y0.9087
G1 Y0.9088
G1 X0.3563 Y0.9288
G1 X0.36 Y0.9371
G1 X0.495
G1 Y0.9491
G1 X0.3506
G0 Z0.05
G0 Y0.9411
G0 Z0.0375
G1 F5.0 Z-0.03
G1 F10.0 X0.3417
G1 X0.3475 Y0.9358
G1 X0.3506 Y0.9411
G1 F5.0 Y0.9451
G1 F10.0 X0.3295
G1 X0.339 Y0.9381
G1 X0.351 Y0.9264
G1 X0.3709 Y0.8972
G1 X0.3726
G1 X0.3674 Y0.9066
G1 X0.3673 Y0.9068
G1 X0.3533 Y0.9261
G1 X0.36 Y0.9411
G1 X0.491
G1 Y0.9451
G1 X0.3506
G1 F5.0 Y0.9491
G1 F10.0 X0.3253
G1 Y0.9429
G1 X0.3364 Y0.9351
G1 X0.348 Y0.9237
G1 X0.3684 Y0.8932
G1 X0.379
G1 X0.3708 Y0.9087
G1 Y0.9088
G1 X0.3563 Y0.9288
G1 X0.36 Y0.9371
G1 X0.495
G1 Y0.9491
G1 X0.3506
G0 Z0.05
G0 X0.4399 Y3.8731
G0 Z0.0375
G1 F5.0 Z-0.03
G1 F10.0 X0.434 Y3.8773
G1 X0.446 Y3.8857
G1 Y3.9418
G1 X0.437 Y3.9508
G1 X0.3563
G1 X0.3484 Y3.9376
G1 X0.33 Y3.9505
G1 Y3.9547
G1 X0.437
G1 X0.446 Y3.9637
G1 Y3.9789
G1 X0.4482
G1 Y3.9637
G1 X0.4572 Y3.9547
G1 X0.491
G1 Y3.9508
G1 X0.4572
G1 X0.4482 Y3.9418
G1 Y3.8731
G1 X0.4399
G0 Z0.05
M5
M30
